;FLAVOR:RepRap
;TIME:1765
;Filament used: 0.319415m
;Layer height: 0.1
;Generated with Cura_SteamEngine 2.4.0
M190 S60
M104 S205
M109 S205
G28 ;Home
G1 Z15.0 F6000 ;Move the platform down 15mm
;Prime the extruder
G92 E0
G1 F200 E3
G92 E0
;LAYER_COUNT:156
;LAYER:0
M107
G1 F1500 E-6.5
G0 F3600 X91.813 Y92.293 Z0.3
;TYPE:SKIRT
G1 F1500 E0
G1 F1800 X92.363 Y91.745 E0.0146
G1 X93.343 Y90.862 E0.03942
G1 X93.904 Y90.402 E0.05306
G1 X94.794 Y89.739 E0.07394
G1 X95.451 Y89.3 E0.0888
G1 X96.148 Y88.929 E0.10366
G1 X96.879 Y88.631 E0.11851
G1 X97.637 Y88.409 E0.13336
G1 X98.413 Y88.264 E0.14821
G1 X99.454 Y88.194 E0.16784
G1 X114.547 Y88.194 E0.45175
G1 X115.336 Y88.234 E0.46661
G1 X116.116 Y88.353 E0.48145
G1 X116.881 Y88.551 E0.49631
G1 X117.621 Y88.825 E0.51116
G1 X118.33 Y89.173 E0.52601
G1 X119.001 Y89.591 E0.54088
G1 X119.381 Y89.873 E0.54979
G1 X120.827 Y91.015 E0.58445
G1 X121.52 Y91.632 E0.6019
G1 X122.445 Y92.561 E0.62656
G1 X123.058 Y93.255 E0.64398
G1 X124.146 Y94.644 E0.67717
G1 X124.601 Y95.29 E0.69203
G1 X124.989 Y95.978 E0.70689
G1 X125.304 Y96.702 E0.72174
G1 X125.545 Y97.454 E0.73659
G1 X125.709 Y98.226 E0.75144
G1 X125.793 Y99.011 E0.76629
G1 X125.806 Y99.454 E0.77463
G1 X125.806 Y114.546 E1.05852
G1 X125.766 Y115.335 E1.07338
G1 X125.647 Y116.115 E1.08822
G1 X125.449 Y116.88 E1.10308
G1 X125.175 Y117.62 E1.11793
G1 X124.827 Y118.329 E1.13278
G1 X124.247 Y119.225 E1.15286
G1 X123.54 Y120.168 E1.17503
G1 X123.07 Y120.737 E1.18891
G1 X122.187 Y121.708 E1.2136
G1 X121.638 Y122.254 E1.22816
G1 X120.665 Y123.131 E1.2528
G1 X120.106 Y123.59 E1.26641
G1 X119.209 Y124.259 E1.28746
G1 X118.553 Y124.698 E1.30231
G1 X117.856 Y125.069 E1.31716
G1 X117.125 Y125.367 E1.33201
G1 X116.367 Y125.59 E1.34687
G1 X115.591 Y125.736 E1.36173
G1 X114.546 Y125.806 E1.38143
G1 X99.454 Y125.806 E1.66532
G1 X98.665 Y125.766 E1.68018
G1 X97.885 Y125.647 E1.69502
G1 X97.12 Y125.449 E1.70988
G1 X96.38 Y125.175 E1.72473
G1 X95.671 Y124.827 E1.73958
G1 X94.774 Y124.246 E1.75969
G1 X93.83 Y123.538 E1.78188
G1 X93.263 Y123.069 E1.79572
G1 X92.293 Y122.187 E1.82038
G1 X91.745 Y121.637 E1.83499
G1 X90.862 Y120.657 E1.8598
G1 X90.402 Y120.096 E1.87345
G1 X89.739 Y119.206 E1.89433
G1 X89.3 Y118.549 E1.90919
G1 X88.929 Y117.852 E1.92404
G1 X88.631 Y117.121 E1.93889
G1 X88.409 Y116.363 E1.95375
G1 X88.264 Y115.587 E1.9686
G1 X88.194 Y114.546 E1.98822
G1 X88.194 Y99.453 E2.27213
G1 X88.234 Y98.664 E2.28699
G1 X88.353 Y97.884 E2.30183
G1 X88.551 Y97.119 E2.3167
G1 X88.825 Y96.379 E2.33154
G1 X89.173 Y95.67 E2.3464
G1 X89.756 Y94.77 E2.36657
G1 X90.464 Y93.827 E2.38875
G1 X90.931 Y93.263 E2.40252
G1 X91.813 Y92.293 E2.42719
G0 F3600 X92.109 Y92.562
G1 F1800 X92.631 Y92.042 E2.44105
G1 X93.611 Y91.159 E2.46586
G1 X94.143 Y90.723 E2.4788
G1 X95.033 Y90.06 E2.49967
G1 X95.673 Y89.633 E2.51415
G1 X96.354 Y89.275 E2.52862
G1 X97.068 Y88.989 E2.54309
G1 X97.808 Y88.779 E2.55756
G1 X98.566 Y88.648 E2.57203
G1 X99.454 Y88.594 E2.58876
G1 X114.547 Y88.594 E2.87267
G1 X115.315 Y88.634 E2.88713
G1 X116.075 Y88.753 E2.9016
G1 X116.818 Y88.951 E2.91607
G1 X117.537 Y89.225 E2.93054
G1 X118.223 Y89.572 E2.945
G1 X119.133 Y90.187 E2.96566
G1 X120.579 Y91.329 E3.00032
G1 X121.237 Y91.915 E3.0169
G1 X122.162 Y92.844 E3.04156
G1 X122.744 Y93.502 E3.05808
G1 X123.832 Y94.891 E3.09127
G1 X124.274 Y95.52 E3.10573
G1 X124.648 Y96.192 E3.1202
G1 X124.951 Y96.899 E3.13467
G1 X125.179 Y97.634 E3.14914
G1 X125.329 Y98.388 E3.1636
G1 X125.406 Y99.454 E3.18371
G1 X125.406 Y114.546 E3.4676
G1 X125.366 Y115.314 E3.48206
G1 X125.247 Y116.074 E3.49653
G1 X125.049 Y116.817 E3.511
G1 X124.775 Y117.536 E3.52547
G1 X124.428 Y118.222 E3.53993
G1 X123.927 Y118.985 E3.5571
G1 X123.22 Y119.928 E3.57927
G1 X122.774 Y120.468 E3.59245
G1 X121.891 Y121.439 E3.61713
G1 X121.37 Y121.957 E3.63095
G1 X120.397 Y122.834 E3.65559
G1 X119.867 Y123.269 E3.66849
G1 X118.97 Y123.938 E3.68954
G1 X118.33 Y124.365 E3.70401
G1 X117.65 Y124.724 E3.71848
G1 X116.936 Y125.009 E3.73294
G1 X116.196 Y125.22 E3.74741
G1 X115.438 Y125.352 E3.76189
G1 X114.546 Y125.406 E3.7787
G1 X99.454 Y125.406 E4.06259
G1 X98.686 Y125.366 E4.07705
G1 X97.926 Y125.247 E4.09152
G1 X97.183 Y125.049 E4.10599
G1 X96.464 Y124.775 E4.12046
G1 X95.778 Y124.428 E4.13492
G1 X95.014 Y123.926 E4.15212
G1 X94.07 Y123.218 E4.17431
G1 X93.532 Y122.773 E4.18745
G1 X92.562 Y121.891 E4.21211
G1 X92.042 Y121.369 E4.22597
G1 X91.159 Y120.389 E4.25078
G1 X90.723 Y119.857 E4.26372
G1 X90.06 Y118.967 E4.2846
G1 X89.633 Y118.327 E4.29907
G1 X89.275 Y117.646 E4.31354
G1 X88.989 Y116.932 E4.32801
G1 X88.779 Y116.192 E4.34248
G1 X88.648 Y115.434 E4.35695
G1 X88.594 Y114.546 E4.37368
G1 X88.594 Y99.453 E4.65759
G1 X88.634 Y98.685 E4.67206
G1 X88.753 Y97.925 E4.68653
G1 X88.951 Y97.182 E4.70099
G1 X89.225 Y96.463 E4.71546
G1 X89.572 Y95.777 E4.72992
G1 X90.076 Y95.01 E4.74719
G1 X90.784 Y94.067 E4.76937
G1 X91.227 Y93.532 E4.78244
G1 X92.109 Y92.562 E4.8071
G0 F3600 X92.405 Y92.831
G1 F1800 X92.898 Y92.34 E4.82018
G1 X93.878 Y91.457 E4.845
G1 X94.382 Y91.043 E4.85727
G1 X95.272 Y90.38 E4.87814
G1 X95.895 Y89.966 E4.89221
G1 X96.559 Y89.621 E4.90629
G1 X97.255 Y89.348 E4.92035
G1 X97.977 Y89.152 E4.93443
G1 X98.716 Y89.033 E4.94851
G1 X99.454 Y88.994 E4.96241
G1 X114.547 Y88.994 E5.24631
G1 X115.294 Y89.034 E5.26039
G1 X116.032 Y89.153 E5.27445
G1 X116.754 Y89.351 E5.28853
G1 X117.45 Y89.624 E5.30259
G1 X118.113 Y89.971 E5.31667
G1 X118.885 Y90.501 E5.33428
G1 X120.331 Y91.643 E5.36894
G1 X120.953 Y92.197 E5.38461
G1 X121.878 Y93.126 E5.40927
G1 X122.429 Y93.748 E5.4249
G1 X123.517 Y95.137 E5.45809
G1 X123.946 Y95.75 E5.47217
G1 X124.307 Y96.405 E5.48624
G1 X124.597 Y97.095 E5.50031
G1 X124.811 Y97.812 E5.51439
G1 X124.947 Y98.547 E5.52845
G1 X125.006 Y99.454 E5.54555
G1 X125.006 Y114.546 E5.82944
G1 X124.966 Y115.293 E5.84351
G1 X124.847 Y116.031 E5.85757
G1 X124.649 Y116.753 E5.87165
G1 X124.376 Y117.449 E5.88572
G1 X124.029 Y118.112 E5.89979
G1 X123.607 Y118.745 E5.9141
G1 X122.9 Y119.688 E5.93627
G1 X122.478 Y120.199 E5.94874
G1 X121.595 Y121.17 E5.97343
G1 X121.103 Y121.66 E5.98649
G1 X120.13 Y122.537 E6.01113
G1 X119.628 Y122.948 E6.02333
G1 X118.731 Y123.617 E6.04438
G1 X118.108 Y124.032 E6.05846
G1 X117.445 Y124.378 E6.07253
G1 X116.748 Y124.65 E6.0866
G1 X116.027 Y124.848 E6.10067
G1 X115.288 Y124.967 E6.11475
G1 X114.546 Y125.006 E6.12872
G1 X99.454 Y125.006 E6.41261
G1 X98.707 Y124.966 E6.42669
G1 X97.969 Y124.847 E6.44075
G1 X97.247 Y124.649 E6.45483
G1 X96.551 Y124.376 E6.46889
G1 X95.888 Y124.029 E6.48297
G1 X95.254 Y123.606 E6.49731
G1 X94.31 Y122.898 E6.5195
G1 X93.801 Y122.477 E6.53193
G1 X92.831 Y121.595 E6.55659
G1 X92.34 Y121.102 E6.56968
G1 X91.457 Y120.122 E6.59449
G1 X91.043 Y119.618 E6.60676
G1 X90.38 Y118.728 E6.62764
G1 X89.966 Y118.105 E6.64171
G1 X89.621 Y117.441 E6.65578
G1 X89.348 Y116.745 E6.66984
G1 X89.152 Y116.023 E6.68392
G1 X89.033 Y115.284 E6.698
G1 X88.994 Y114.546 E6.7119
G1 X88.994 Y99.453 E6.99581
G1 X89.034 Y98.706 E7.00988
G1 X89.153 Y97.968 E7.02394
G1 X89.351 Y97.246 E7.03802
G1 X89.624 Y96.55 E7.05209
G1 X89.971 Y95.887 E7.06616
G1 X90.396 Y95.25 E7.08057
G1 X91.104 Y94.307 E7.10275
G1 X91.523 Y93.801 E7.11511
G1 X92.405 Y92.831 E7.13977
G0 F3600 X92.701 Y93.1
G1 F1800 X93.166 Y92.637 E7.15211
G1 X94.146 Y91.754 E7.17692
G1 X94.621 Y91.364 E7.18848
G1 X95.511 Y90.701 E7.20936
G1 X96.117 Y90.3 E7.22303
G1 X96.763 Y89.968 E7.23669
G1 X97.441 Y89.708 E7.25035
G1 X98.144 Y89.525 E7.26402
G1 X98.863 Y89.421 E7.27768
G1 X99.454 Y89.394 E7.28881
G1 X114.547 Y89.394 E7.57272
G1 X115.272 Y89.434 E7.58638
G1 X115.989 Y89.553 E7.60005
G1 X116.688 Y89.751 E7.61371
G1 X117.361 Y90.024 E7.62738
G1 X118 Y90.369 E7.64104
G1 X118.638 Y90.815 E7.65568
G1 X120.084 Y91.957 E7.69034
G1 X120.67 Y92.479 E7.7051
G1 X121.595 Y93.408 E7.72976
G1 X122.114 Y93.995 E7.7445
G1 X123.202 Y95.384 E7.77769
G1 X123.618 Y95.98 E7.79136
G1 X123.965 Y96.617 E7.80501
G1 X124.241 Y97.289 E7.81867
G1 X124.441 Y97.988 E7.83235
G1 X124.563 Y98.704 E7.84601
G1 X124.606 Y99.454 E7.86014
G1 X124.606 Y114.546 E8.14403
G1 X124.566 Y115.271 E8.15769
G1 X124.447 Y115.988 E8.17136
G1 X124.249 Y116.687 E8.18503
G1 X123.976 Y117.36 E8.19869
G1 X123.631 Y117.999 E8.21235
G1 X123.287 Y118.505 E8.22386
G1 X122.58 Y119.448 E8.24603
G1 X122.182 Y119.929 E8.25777
G1 X121.299 Y120.9 E8.28246
G1 X120.835 Y121.362 E8.29477
G1 X119.862 Y122.239 E8.31941
G1 X119.389 Y122.628 E8.33093
G1 X118.492 Y123.297 E8.35198
G1 X117.887 Y123.698 E8.36564
G1 X117.241 Y124.031 E8.37931
G1 X116.562 Y124.29 E8.39298
G1 X115.86 Y124.474 E8.40663
G1 X115.141 Y124.579 E8.4203
G1 X114.546 Y124.606 E8.4315
G1 X99.454 Y124.606 E8.71539
G1 X98.729 Y124.566 E8.72905
G1 X98.012 Y124.447 E8.74272
G1 X97.313 Y124.249 E8.75639
G1 X96.64 Y123.976 E8.77005
G1 X96.001 Y123.631 E8.78371
G1 X95.494 Y123.286 E8.79524
G1 X94.55 Y122.578 E8.81744
G1 X94.07 Y122.181 E8.82916
G1 X93.1 Y121.299 E8.85382
G1 X92.637 Y120.834 E8.86616
G1 X91.754 Y119.854 E8.89097
G1 X91.364 Y119.379 E8.90254
G1 X90.701 Y118.489 E8.92341
G1 X90.3 Y117.883 E8.93708
G1 X89.968 Y117.237 E8.95074
G1 X89.708 Y116.559 E8.9644
G1 X89.525 Y115.856 E8.97807
G1 X89.421 Y115.137 E8.99173
G1 X89.394 Y114.546 E9.00286
G1 X89.394 Y99.453 E9.28677
G1 X89.434 Y98.728 E9.30043
G1 X89.553 Y98.011 E9.3141
G1 X89.751 Y97.312 E9.32776
G1 X90.024 Y96.639 E9.34143
G1 X90.369 Y96 E9.35509
G1 X90.716 Y95.49 E9.36669
G1 X91.424 Y94.547 E9.38887
G1 X91.819 Y94.07 E9.40052
G1 X92.701 Y93.1 E9.42518
G0 F3600 X92.997 Y93.369
G1 F1800 X93.434 Y92.934 E9.43678
G1 X94.414 Y92.051 E9.46159
G1 X94.86 Y91.685 E9.47245
G1 X95.75 Y91.022 E9.49332
G1 X96.338 Y90.634 E9.50657
G1 X96.965 Y90.315 E9.51981
G1 X97.625 Y90.07 E9.53305
G1 X98.308 Y89.901 E9.54628
G1 X99.007 Y89.81 E9.55954
G1 X99.454 Y89.794 E9.56796
G1 X114.547 Y89.794 E9.85187
G1 X115.25 Y89.834 E9.86511
G1 X115.944 Y89.953 E9.87836
G1 X116.619 Y90.151 E9.89159
G1 X117.268 Y90.423 E9.90482
G1 X117.882 Y90.768 E9.91807
G1 X118.39 Y91.128 E9.92978
G1 X119.836 Y92.27 E9.96444
G1 X120.387 Y92.761 E9.97833
G1 X121.312 Y93.69 E10.00299
G1 X121.799 Y94.242 E10.01683
G1 X122.887 Y95.631 E10.05002
G1 X123.289 Y96.209 E10.06327
G1 X123.623 Y96.829 E10.07651
G1 X123.884 Y97.482 E10.08974
G1 X124.07 Y98.161 E10.10299
G1 X124.177 Y98.857 E10.11623
G1 X124.206 Y99.454 E10.12747
G1 X124.206 Y114.546 E10.41136
G1 X124.166 Y115.249 E10.42461
G1 X124.047 Y115.943 E10.43785
G1 X123.849 Y116.618 E10.45109
G1 X123.577 Y117.267 E10.46432
G1 X123.232 Y117.881 E10.47757
G1 X122.967 Y118.265 E10.48635
G1 X122.26 Y119.208 E10.50852
G1 X121.886 Y119.66 E10.51955
G1 X121.003 Y120.631 E10.54424
G1 X120.567 Y121.065 E10.55581
G1 X119.594 Y121.942 E10.58045
G1 X119.15 Y122.307 E10.59126
G1 X118.253 Y122.976 E10.61231
G1 X117.665 Y123.364 E10.62557
G1 X117.038 Y123.683 E10.6388
G1 X116.378 Y123.929 E10.65205
G1 X115.695 Y124.099 E10.66529
G1 X114.997 Y124.19 E10.67853
G1 X114.546 Y124.206 E10.68702
G1 X99.454 Y124.206 E10.97091
G1 X98.751 Y124.166 E10.98415
G1 X98.057 Y124.047 E10.9974
G1 X97.382 Y123.849 E11.01063
G1 X96.733 Y123.577 E11.02387
G1 X96.119 Y123.232 E11.03711
G1 X95.734 Y122.966 E11.04592
G1 X94.79 Y122.258 E11.06811
G1 X94.339 Y121.885 E11.07912
G1 X93.369 Y121.003 E11.10378
G1 X92.934 Y120.566 E11.11538
G1 X92.051 Y119.586 E11.14019
G1 X91.685 Y119.14 E11.15105
G1 X91.022 Y118.25 E11.17192
G1 X90.634 Y117.662 E11.18517
G1 X90.315 Y117.035 E11.19841
G1 X90.07 Y116.375 E11.21165
G1 X89.901 Y115.692 E11.22489
G1 X89.81 Y114.993 E11.23815
G1 X89.794 Y114.546 E11.24656
G1 X89.794 Y99.453 E11.53047
G1 X89.834 Y98.75 E11.54371
G1 X89.953 Y98.056 E11.55696
G1 X90.151 Y97.381 E11.57019
G1 X90.423 Y96.732 E11.58343
G1 X90.768 Y96.118 E11.59667
G1 X91.036 Y95.73 E11.60554
G1 X91.744 Y94.787 E11.62773
G1 X92.115 Y94.339 E11.63867
G1 X92.997 Y93.369 E11.66333
G0 F3600 X93.293 Y93.638
G1 F1800 X93.702 Y93.231 E11.67418
G1 X94.682 Y92.348 E11.699
G1 X95.099 Y92.006 E11.70914
G1 X95.989 Y91.343 E11.73002
G1 X96.558 Y90.969 E11.74282
G1 X97.167 Y90.664 E11.75564
G1 X97.807 Y90.433 E11.76844
G1 X98.47 Y90.278 E11.78124
G1 X99.454 Y90.194 E11.79982
G1 X114.547 Y90.194 E12.08373
G1 X115.227 Y90.234 E12.09654
G1 X115.897 Y90.353 E12.10934
G1 X116.549 Y90.55 E12.12215
G1 X117.173 Y90.822 E12.13496
G1 X117.761 Y91.166 E12.14777
G1 X118.142 Y91.442 E12.15662
G1 X119.588 Y92.584 E12.19128
G1 X120.103 Y93.044 E12.20427
G1 X121.028 Y93.973 E12.22893
G1 X121.484 Y94.488 E12.24187
G1 X122.572 Y95.877 E12.27506
G1 X122.96 Y96.437 E12.28788
G1 X123.279 Y97.039 E12.30069
G1 X123.526 Y97.673 E12.31349
G1 X123.696 Y98.332 E12.32629
G1 X123.789 Y99.007 E12.33911
G1 X123.806 Y99.454 E12.34752
G1 X123.806 Y114.546 E12.63141
G1 X123.766 Y115.226 E12.64423
G1 X123.647 Y115.896 E12.65703
G1 X123.45 Y116.548 E12.66984
G1 X123.178 Y117.172 E12.68264
G1 X122.647 Y118.025 E12.70154
G1 X121.94 Y118.968 E12.72371
G1 X121.59 Y119.391 E12.73404
G1 X120.707 Y120.362 E12.75873
G1 X120.299 Y120.768 E12.76956
G1 X119.326 Y121.645 E12.7942
G1 X118.911 Y121.986 E12.8043
G1 X118.014 Y122.655 E12.82535
G1 X117.445 Y123.03 E12.83817
G1 X116.836 Y123.335 E12.85098
G1 X116.196 Y123.566 E12.86378
G1 X115.533 Y123.721 E12.87659
G1 X114.546 Y123.806 E12.89522
G1 X99.454 Y123.806 E13.17911
G1 X98.774 Y123.766 E13.19192
G1 X98.104 Y123.647 E13.20472
G1 X97.452 Y123.45 E13.21753
G1 X96.828 Y123.178 E13.23034
G1 X95.974 Y122.646 E13.24927
G1 X95.03 Y121.938 E13.27146
G1 X94.608 Y121.589 E13.28176
G1 X93.638 Y120.707 E13.30642
G1 X93.231 Y120.298 E13.31728
G1 X92.348 Y119.318 E13.34209
G1 X92.006 Y118.901 E13.35224
G1 X91.343 Y118.011 E13.37311
G1 X90.969 Y117.442 E13.38592
G1 X90.664 Y116.833 E13.39873
G1 X90.433 Y116.193 E13.41153
G1 X90.278 Y115.53 E13.42434
G1 X90.194 Y114.546 E13.44292
G1 X90.194 Y99.453 E13.72682
G1 X90.234 Y98.773 E13.73964
G1 X90.353 Y98.103 E13.75244
G1 X90.55 Y97.451 E13.76525
G1 X90.822 Y96.827 E13.77805
G1 X91.356 Y95.971 E13.79703
G1 X92.064 Y95.028 E13.81921
G1 X92.411 Y94.608 E13.82946
G1 X93.293 Y93.638 E13.85412
G0 F3600 X93.589 Y93.907
G1 F1800 X93.969 Y93.528 E13.86422
G1 X94.949 Y92.645 E13.88903
G1 X95.338 Y92.327 E13.89848
G1 X96.228 Y91.664 E13.91936
G1 X96.778 Y91.304 E13.93172
G1 X97.367 Y91.014 E13.94407
G1 X97.987 Y90.797 E13.95643
G1 X98.629 Y90.657 E13.96879
G1 X99.454 Y90.594 E13.98435
G1 X114.547 Y90.594 E14.26826
G1 X115.203 Y90.634 E14.28062
G1 X115.849 Y90.753 E14.29298
G1 X116.476 Y90.95 E14.30534
G1 X117.074 Y91.222 E14.3177
G1 X117.894 Y91.756 E14.33611
G1 X119.34 Y92.898 E14.37077
G1 X119.82 Y93.326 E14.38286
G1 X120.745 Y94.255 E14.40752
G1 X121.169 Y94.735 E14.41957
G1 X122.257 Y96.124 E14.45276
G1 X122.63 Y96.665 E14.46512
G1 X122.934 Y97.247 E14.47747
G1 X123.166 Y97.862 E14.48984
G1 X123.321 Y98.5 E14.50219
G1 X123.406 Y99.454 E14.5202
G1 X123.406 Y114.546 E14.80409
G1 X123.366 Y115.202 E14.81646
G1 X123.247 Y115.848 E14.82881
G1 X123.05 Y116.475 E14.84117
G1 X122.778 Y117.073 E14.85353
G1 X122.327 Y117.785 E14.86939
G1 X121.62 Y118.728 E14.89156
G1 X121.294 Y119.122 E14.90118
G1 X120.411 Y120.093 E14.92586
G1 X120.031 Y120.471 E14.93595
G1 X119.058 Y121.348 E14.96059
G1 X118.671 Y121.666 E14.97001
G1 X117.774 Y122.335 E14.99106
G1 X117.225 Y122.695 E15.00341
G1 X116.636 Y122.985 E15.01576
G1 X116.016 Y123.202 E15.02811
G1 X115.374 Y123.342 E15.04047
G1 X114.546 Y123.406 E15.05609
G1 X99.454 Y123.406 E15.33998
G1 X98.798 Y123.366 E15.35235
G1 X98.152 Y123.247 E15.3647
G1 X97.525 Y123.05 E15.37706
G1 X96.927 Y122.778 E15.38942
G1 X96.214 Y122.326 E15.4053
G1 X95.27 Y121.618 E15.4275
G1 X94.877 Y121.293 E15.43709
G1 X93.907 Y120.411 E15.46175
G1 X93.528 Y120.031 E15.47185
G1 X92.645 Y119.051 E15.49666
G1 X92.327 Y118.662 E15.50611
G1 X91.664 Y117.772 E15.52699
G1 X91.304 Y117.222 E15.53935
G1 X91.014 Y116.633 E15.5517
G1 X90.797 Y116.013 E15.56406
G1 X90.657 Y115.371 E15.57642
G1 X90.594 Y114.546 E15.59198
G1 X90.594 Y99.453 E15.87589
G1 X90.634 Y98.797 E15.88825
G1 X90.753 Y98.151 E15.90061
G1 X90.95 Y97.524 E15.91297
G1 X91.222 Y96.926 E15.92533
G1 X91.676 Y96.211 E15.94126
G1 X92.384 Y95.268 E15.96344
