;FLAVOR:RepRap
;TIME:2813
;Filament used: 0.56108m
;Layer height: 0.1
;Generated with Cura_SteamEngine 2.4.0
M190 S60
M104 S205
M109 S205
G28 ;Home
G1 Z15.0 F6000 ;Move the platform down 15mm
;Prime the extruder
G92 E0
G1 F200 E3
G92 E0
;LAYER_COUNT:209
;LAYER:0
M107
G1 F1500 E-6.5
G0 F3600 X85.57 Y95.528 Z0.3
;TYPE:SKIRT
G1 F1500 E0
G1 F1800 X86.169 Y95.013 E0.01486
G1 X86.817 Y94.562 E0.02971
G1 X87.508 Y94.178 E0.04458
G1 X88.233 Y93.866 E0.05943
G1 X88.986 Y93.629 E0.07428
G1 X89.76 Y93.47 E0.08914
G1 X90.545 Y93.389 E0.10398
G1 X90.979 Y93.379 E0.11215
G1 X92.92 Y93.387 E0.14866
G1 X92.987 Y93.391 E0.14993
G1 X93.013 Y93.29 E0.15189
G1 X93.287 Y92.55 E0.16673
G1 X93.635 Y91.841 E0.18159
G1 X93.976 Y91.282 E0.1939
G1 X95.28 Y89.336 E0.23797
G1 X95.753 Y88.703 E0.25283
G1 X96.286 Y88.121 E0.26768
G1 X97.078 Y87.44 E0.28732
G1 X97.523 Y87.106 E0.29779
G1 X98.178 Y86.664 E0.31265
G1 X98.874 Y86.291 E0.32751
G1 X99.604 Y85.991 E0.34235
G1 X100.361 Y85.765 E0.35722
G1 X101.136 Y85.618 E0.37205
G1 X102.205 Y85.544 E0.39221
G1 X104.765 Y85.544 E0.44037
G1 X105.554 Y85.584 E0.45523
G1 X106.065 Y85.662 E0.46495
G1 X106.098 Y85.662 E0.46557
G1 X106.887 Y85.702 E0.48043
G1 X107.667 Y85.821 E0.49527
G1 X108.432 Y86.019 E0.51014
G1 X108.489 Y86.04 E0.51128
G1 X108.896 Y85.912 E0.51931
G1 X109.67 Y85.753 E0.53417
G1 X110.455 Y85.672 E0.54901
G1 X110.857 Y85.662 E0.55658
G1 X112.057 Y85.662 E0.57915
G1 X112.846 Y85.702 E0.59401
G1 X113.626 Y85.821 E0.60885
G1 X114.391 Y86.019 E0.62372
G1 X115.131 Y86.293 E0.63856
G1 X115.84 Y86.641 E0.65342
G1 X116.511 Y87.059 E0.66829
G1 X117.135 Y87.542 E0.68313
G1 X117.708 Y88.085 E0.69798
G1 X118.036 Y88.468 E0.70747
G1 X118.236 Y88.651 E0.71256
G1 X118.762 Y89.24 E0.72742
G1 X119.176 Y89.802 E0.74055
G1 X120.149 Y91.259 E0.77351
G1 X120.553 Y91.937 E0.78835
G1 X120.887 Y92.653 E0.80321
G1 X121.143 Y93.387 E0.81784
G1 X123.021 Y93.379 E0.85316
G1 X123.81 Y93.416 E0.86802
G1 X124.591 Y93.532 E0.88287
G1 X125.356 Y93.727 E0.89772
G1 X126.098 Y93.998 E0.91258
G1 X126.808 Y94.342 E0.92742
G1 X127.48 Y94.757 E0.94228
G1 X128.107 Y95.238 E0.95714
G1 X128.682 Y95.779 E0.972
G1 X129.199 Y96.376 E0.98685
G1 X129.653 Y97.022 E1.0017
G1 X130.039 Y97.711 E1.01656
G1 X130.354 Y98.435 E1.03141
G1 X130.594 Y99.187 E1.04626
G1 X130.757 Y99.96 E1.06112
G1 X130.841 Y100.745 E1.07597
G1 X130.853 Y101.179 E1.08414
G1 X130.853 Y116.775 E1.37751
G1 X130.786 Y117.794 E1.39672
G1 X130.665 Y118.712 E1.41413
G1 X130.522 Y119.489 E1.42899
G1 X130.302 Y120.247 E1.44384
G1 X130.14 Y120.674 E1.45243
G1 X129.786 Y121.53 E1.46986
G1 X129.448 Y122.243 E1.4847
G1 X129.039 Y122.919 E1.49956
G1 X128.771 Y123.291 E1.50819
G1 X128.206 Y124.029 E1.52567
G1 X127.695 Y124.63 E1.54051
G1 X127.126 Y125.178 E1.55537
G1 X126.753 Y125.481 E1.56441
G1 X126.016 Y126.045 E1.58187
G1 X125.366 Y126.493 E1.59671
G1 X124.673 Y126.872 E1.61157
G1 X124.261 Y127.057 E1.62007
G1 X123.404 Y127.412 E1.63752
G1 X122.66 Y127.677 E1.65237
G1 X121.893 Y127.865 E1.66723
G1 X121.438 Y127.939 E1.6759
G1 X120.52 Y128.06 E1.69332
G1 X119.501 Y128.127 E1.71253
G1 X94.499 Y128.127 E2.18283
G1 X93.48 Y128.06 E2.20204
G1 X92.562 Y127.939 E2.21945
G1 X91.785 Y127.796 E2.23432
G1 X91.027 Y127.576 E2.24916
G1 X90.596 Y127.412 E2.25784
G1 X89.739 Y127.057 E2.27529
G1 X89.026 Y126.718 E2.29014
G1 X88.35 Y126.309 E2.305
G1 X87.984 Y126.045 E2.31349
G1 X87.247 Y125.481 E2.33094
G1 X86.645 Y124.97 E2.3458
G1 X86.097 Y124.401 E2.36066
G1 X85.794 Y124.029 E2.36968
G1 X85.229 Y123.291 E2.38717
G1 X84.781 Y122.64 E2.40203
G1 X84.401 Y121.948 E2.41688
G1 X84.214 Y121.53 E2.4255
G1 X83.86 Y120.674 E2.44292
G1 X83.596 Y119.93 E2.45777
G1 X83.408 Y119.163 E2.47263
G1 X83.335 Y118.716 E2.48114
G1 X83.214 Y117.801 E2.49851
G1 X83.147 Y116.778 E2.51779
G1 X83.147 Y101.179 E2.81122
G1 X83.187 Y100.39 E2.82608
G1 X83.306 Y99.61 E2.84092
G1 X83.504 Y98.845 E2.85578
G1 X83.778 Y98.105 E2.87063
G1 X84.126 Y97.396 E2.88548
G1 X84.544 Y96.725 E2.90035
G1 X85.027 Y96.101 E2.9152
G1 X85.57 Y95.528 E2.93005
G0 F3600 X85.963 Y95.709
G1 F1800 X86.558 Y95.221 E2.94452
G1 X87.2 Y94.798 E2.95898
G1 X87.883 Y94.443 E2.97346
G1 X88.598 Y94.162 E2.98791
G1 X89.34 Y93.956 E3.0024
G1 X90.098 Y93.828 E3.01686
G1 X90.977 Y93.779 E3.03342
G1 X92.918 Y93.787 E3.06993
G1 X93.292 Y93.808 E3.07698
G1 X93.413 Y93.353 E3.08583
G1 X93.687 Y92.634 E3.10031
G1 X94.034 Y91.948 E3.11477
G1 X94.309 Y91.505 E3.12458
G1 X95.613 Y89.559 E3.16864
G1 X96.073 Y88.943 E3.1831
G1 X96.596 Y88.378 E3.19758
G1 X97.318 Y87.76 E3.21546
G1 X97.763 Y87.426 E3.22593
G1 X98.401 Y86.996 E3.2404
G1 X99.081 Y86.636 E3.25487
G1 X99.794 Y86.348 E3.26934
G1 X100.533 Y86.135 E3.2838
G1 X101.29 Y86.001 E3.29827
G1 X102.205 Y85.944 E3.31551
G1 X104.765 Y85.944 E3.36367
G1 X105.533 Y85.984 E3.37813
G1 X106.031 Y86.062 E3.38761
G1 X106.098 Y86.062 E3.38887
G1 X106.866 Y86.102 E3.40334
G1 X107.626 Y86.221 E3.41781
G1 X108.369 Y86.419 E3.43227
G1 X108.473 Y86.459 E3.43437
G1 X108.508 Y86.445 E3.43508
G1 X109.25 Y86.239 E3.44956
G1 X110.008 Y86.111 E3.46403
G1 X110.857 Y86.062 E3.48002
G1 X112.057 Y86.062 E3.50259
G1 X112.825 Y86.102 E3.51706
G1 X113.585 Y86.221 E3.53153
G1 X114.328 Y86.419 E3.54599
G1 X115.047 Y86.693 E3.56047
G1 X115.733 Y87.04 E3.57493
G1 X116.38 Y87.456 E3.5894
G1 X116.98 Y87.937 E3.60386
G1 X117.527 Y88.478 E3.61834
G1 X117.766 Y88.763 E3.62533
G1 X117.966 Y88.946 E3.63043
G1 X118.476 Y89.522 E3.6449
G1 X118.843 Y90.024 E3.6566
G1 X119.816 Y91.481 E3.68956
G1 X120.209 Y92.142 E3.70402
G1 X120.532 Y92.841 E3.71851
G1 X120.78 Y93.568 E3.73296
G1 X120.834 Y93.802 E3.73747
G1 X121.082 Y93.787 E3.74215
G1 X123.023 Y93.779 E3.77866
G1 X123.791 Y93.816 E3.79312
G1 X124.551 Y93.932 E3.80758
G1 X125.295 Y94.127 E3.82205
G1 X126.015 Y94.398 E3.83652
G1 X126.703 Y94.742 E3.85099
G1 X127.351 Y95.155 E3.86545
G1 X127.953 Y95.634 E3.87992
G1 X128.503 Y96.173 E3.8944
G1 X128.993 Y96.765 E3.90886
G1 X129.419 Y97.406 E3.92334
G1 X129.776 Y98.087 E3.9378
G1 X130.061 Y98.802 E3.95228
G1 X130.27 Y99.542 E3.96674
G1 X130.401 Y100.3 E3.98121
G1 X130.453 Y101.179 E3.99778
G1 X130.453 Y116.775 E4.29114
G1 X130.39 Y117.742 E4.30937
G1 X130.269 Y118.66 E4.32679
G1 X130.129 Y119.416 E4.34125
G1 X129.911 Y120.154 E4.35573
G1 X129.77 Y120.521 E4.36312
G1 X129.416 Y121.377 E4.38055
G1 X129.086 Y122.072 E4.39502
G1 X128.685 Y122.728 E4.40948
G1 X128.454 Y123.047 E4.41689
G1 X127.889 Y123.785 E4.43438
G1 X127.39 Y124.371 E4.44885
G1 X126.833 Y124.902 E4.46333
G1 X126.51 Y125.164 E4.47115
G1 X125.773 Y125.728 E4.48861
G1 X125.139 Y126.163 E4.50307
G1 X124.463 Y126.53 E4.51754
G1 X124.108 Y126.688 E4.52485
G1 X123.251 Y127.043 E4.5423
G1 X122.526 Y127.3 E4.55677
G1 X121.778 Y127.48 E4.57124
G1 X121.386 Y127.543 E4.57871
G1 X120.468 Y127.664 E4.59613
G1 X119.501 Y127.727 E4.61435
G1 X94.499 Y127.727 E5.08466
G1 X93.532 Y127.664 E5.10288
G1 X92.614 Y127.543 E5.1203
G1 X91.858 Y127.403 E5.13476
G1 X91.12 Y127.185 E5.14924
G1 X90.749 Y127.043 E5.15671
G1 X89.892 Y126.688 E5.17416
G1 X89.198 Y126.357 E5.18862
G1 X88.541 Y125.956 E5.2031
G1 X88.227 Y125.728 E5.2104
G1 X87.49 Y125.164 E5.22786
G1 X86.904 Y124.665 E5.24234
G1 X86.373 Y124.108 E5.25681
G1 X86.111 Y123.785 E5.26464
G1 X85.546 Y123.047 E5.28212
G1 X85.111 Y122.413 E5.29658
G1 X84.744 Y121.737 E5.31105
G1 X84.584 Y121.377 E5.31846
G1 X84.23 Y120.521 E5.33589
G1 X83.973 Y119.796 E5.35036
G1 X83.793 Y119.048 E5.36483
G1 X83.732 Y118.663 E5.37216
G1 X83.611 Y117.748 E5.38952
G1 X83.547 Y116.778 E5.40781
G1 X83.547 Y101.179 E5.70123
G1 X83.587 Y100.411 E5.7157
G1 X83.706 Y99.651 E5.73017
G1 X83.904 Y98.908 E5.74463
G1 X84.178 Y98.189 E5.75911
G1 X84.525 Y97.503 E5.77357
G1 X84.941 Y96.856 E5.78804
G1 X85.422 Y96.256 E5.8025
G1 X85.963 Y95.709 E5.81697
G0 F3600 X86.355 Y95.895
G1 F1800 X86.945 Y95.436 E5.83104
G1 X87.581 Y95.041 E5.84512
G1 X88.255 Y94.717 E5.85919
G1 X88.96 Y94.467 E5.87326
G1 X89.688 Y94.293 E5.88734
G1 X90.43 Y94.198 E5.90141
G1 X90.976 Y94.179 E5.91168
G1 X92.917 Y94.187 E5.9482
G1 X93.601 Y94.226 E5.96108
G1 X93.615 Y94.139 E5.96274
G1 X93.813 Y93.417 E5.97682
G1 X94.086 Y92.721 E5.99089
G1 X94.433 Y92.058 E6.00496
G1 X94.641 Y91.727 E6.01232
G1 X95.945 Y89.781 E6.05638
G1 X96.394 Y89.183 E6.07045
G1 X96.904 Y88.636 E6.08452
G1 X97.558 Y88.08 E6.10066
G1 X98.003 Y87.746 E6.11113
G1 X98.624 Y87.329 E6.1252
G1 X99.287 Y86.981 E6.13928
G1 X99.982 Y86.706 E6.15334
G1 X100.703 Y86.507 E6.16741
G1 X101.442 Y86.386 E6.1815
G1 X102.205 Y86.344 E6.19587
G1 X104.765 Y86.344 E6.24403
G1 X105.512 Y86.384 E6.2581
G1 X105.996 Y86.462 E6.26732
G1 X106.098 Y86.462 E6.26924
G1 X106.845 Y86.502 E6.28331
G1 X107.583 Y86.621 E6.29737
G1 X108.305 Y86.819 E6.31146
G1 X108.481 Y86.888 E6.31501
G1 X108.87 Y86.75 E6.32278
G1 X109.598 Y86.576 E6.33686
G1 X110.34 Y86.481 E6.35093
G1 X110.857 Y86.462 E6.36066
G1 X112.057 Y86.462 E6.38323
G1 X112.804 Y86.502 E6.3973
G1 X113.542 Y86.621 E6.41136
G1 X114.264 Y86.819 E6.42545
G1 X114.96 Y87.092 E6.43951
G1 X115.623 Y87.439 E6.45359
G1 X116.246 Y87.854 E6.46767
G1 X116.82 Y88.333 E6.48173
G1 X117.341 Y88.87 E6.49581
G1 X117.493 Y89.056 E6.50032
G1 X117.695 Y89.241 E6.50548
G1 X118.189 Y89.803 E6.51955
G1 X118.51 Y90.246 E6.52984
G1 X119.483 Y91.703 E6.5628
G1 X119.865 Y92.347 E6.57688
G1 X120.176 Y93.027 E6.59095
G1 X120.412 Y93.737 E6.60502
G1 X120.516 Y94.216 E6.61424
G1 X120.595 Y94.206 E6.61574
G1 X121.083 Y94.187 E6.62493
G1 X123.024 Y94.179 E6.66144
G1 X123.771 Y94.216 E6.67551
G1 X124.51 Y94.332 E6.68958
G1 X125.233 Y94.527 E6.70366
G1 X125.93 Y94.798 E6.71773
G1 X126.595 Y95.141 E6.73181
G1 X127.219 Y95.553 E6.74587
G1 X127.795 Y96.03 E6.75994
G1 X128.318 Y96.566 E6.77403
G1 X128.78 Y97.154 E6.78809
G1 X129.177 Y97.788 E6.80216
G1 X129.504 Y98.461 E6.81624
G1 X129.757 Y99.165 E6.83031
G1 X129.934 Y99.891 E6.84437
G1 X130.032 Y100.633 E6.85845
G1 X130.053 Y101.179 E6.86872
G1 X130.053 Y116.775 E7.16209
G1 X129.993 Y117.69 E7.17934
G1 X129.872 Y118.608 E7.19676
G1 X129.735 Y119.343 E7.21082
G1 X129.401 Y120.368 E7.2311
G1 X129.047 Y121.224 E7.24853
G1 X128.724 Y121.899 E7.2626
G1 X128.136 Y122.804 E7.2829
G1 X127.571 Y123.542 E7.30039
G1 X127.085 Y124.111 E7.31446
G1 X126.267 Y124.846 E7.33515
G1 X125.53 Y125.41 E7.35261
G1 X124.913 Y125.832 E7.36667
G1 X123.955 Y126.318 E7.38687
G1 X123.098 Y126.673 E7.40432
G1 X122.392 Y126.922 E7.41841
G1 X121.334 Y127.146 E7.43875
G1 X120.416 Y127.267 E7.45617
G1 X119.501 Y127.327 E7.47341
G1 X94.499 Y127.327 E7.94372
G1 X93.584 Y127.267 E7.96096
G1 X92.666 Y127.146 E7.97838
G1 X91.931 Y127.009 E7.99245
G1 X90.902 Y126.673 E8.01281
G1 X90.045 Y126.318 E8.03026
G1 X89.37 Y125.995 E8.04433
G1 X88.47 Y125.41 E8.06452
G1 X87.733 Y124.846 E8.08198
G1 X87.164 Y124.36 E8.09606
G1 X86.429 Y123.542 E8.11674
G1 X85.864 Y122.804 E8.13423
G1 X85.441 Y122.187 E8.1483
G1 X84.953 Y121.224 E8.16861
G1 X84.599 Y120.368 E8.18603
G1 X84.351 Y119.663 E8.20009
G1 X84.128 Y118.611 E8.22032
G1 X84.007 Y117.696 E8.23768
G1 X83.947 Y116.778 E8.25498
G1 X83.947 Y101.179 E8.54841
G1 X83.987 Y100.432 E8.56248
G1 X84.106 Y99.694 E8.57654
G1 X84.304 Y98.972 E8.59062
G1 X84.577 Y98.276 E8.60469
G1 X84.924 Y97.613 E8.61876
G1 X85.339 Y96.99 E8.63285
G1 X85.818 Y96.416 E8.64691
G1 X86.355 Y95.895 E8.66098
G0 F3600 X86.746 Y96.088
G1 F1800 X87.331 Y95.658 E8.67464
G1 X87.96 Y95.294 E8.68831
G1 X88.625 Y95.001 E8.70198
G1 X89.318 Y94.783 E8.71564
G1 X90.03 Y94.643 E8.72929
G1 X90.974 Y94.579 E8.74709
G1 X92.915 Y94.587 E8.7836
G1 X93.64 Y94.63 E8.79727
G1 X93.932 Y94.68 E8.80284
G1 X94.015 Y94.182 E8.81233
G1 X94.213 Y93.483 E8.826
G1 X94.486 Y92.81 E8.83966
G1 X94.973 Y91.95 E8.85825
G1 X96.277 Y90.004 E8.90232
G1 X96.714 Y89.424 E8.91598
G1 X97.212 Y88.895 E8.92964
G1 X97.798 Y88.399 E8.94408
G1 X98.243 Y88.065 E8.95455
G1 X98.847 Y87.662 E8.96821
G1 X99.492 Y87.327 E8.98188
G1 X100.169 Y87.066 E8.99553
G1 X100.872 Y86.88 E9.00921
G1 X101.59 Y86.773 E9.02286
G1 X102.205 Y86.744 E9.03444
G1 X104.765 Y86.744 E9.0826
G1 X105.49 Y86.784 E9.09626
G1 X105.96 Y86.862 E9.10522
G1 X106.098 Y86.862 E9.10782
G1 X106.823 Y86.902 E9.12147
G1 X107.54 Y87.021 E9.13515
G1 X108.239 Y87.219 E9.14881
G1 X108.47 Y87.313 E9.1535
G1 X108.535 Y87.284 E9.15484
G1 X109.228 Y87.066 E9.16851
G1 X109.94 Y86.926 E9.18216
G1 X110.857 Y86.862 E9.19945
G1 X112.057 Y86.862 E9.22202
G1 X112.782 Y86.902 E9.23568
G1 X113.499 Y87.021 E9.24935
G1 X114.198 Y87.219 E9.26302
G1 X114.871 Y87.492 E9.27668
G1 X115.51 Y87.837 E9.29034
G1 X116.107 Y88.251 E9.304
G1 X116.655 Y88.727 E9.31766
G1 X117.167 Y89.299 E9.3321
G1 X117.424 Y89.536 E9.33867
G1 X117.9 Y90.084 E9.35233
G1 X118.178 Y90.469 E9.36126
G1 X119.151 Y91.926 E9.39422
G1 X119.52 Y92.551 E9.40787
G1 X119.819 Y93.213 E9.42153
G1 X120.043 Y93.904 E9.4352
G1 X120.19 Y94.615 E9.44886
G1 X120.193 Y94.651 E9.44953
G1 X120.195 Y94.651 E9.44957
G1 X121.085 Y94.587 E9.46636
G1 X123.026 Y94.579 E9.50287
G1 X123.751 Y94.616 E9.51652
G1 X124.468 Y94.733 E9.53019
G1 X125.168 Y94.927 E9.54385
G1 X125.842 Y95.197 E9.55751
G1 X126.483 Y95.54 E9.57119
G1 X127.082 Y95.951 E9.58485
G1 X127.632 Y96.425 E9.59851
G1 X128.126 Y96.957 E9.61217
G1 X128.559 Y97.54 E9.62583
G1 X128.926 Y98.168 E9.63951
G1 X129.221 Y98.831 E9.65316
G1 X129.442 Y99.523 E9.66682
G1 X129.585 Y100.235 E9.68048
G1 X129.653 Y101.179 E9.69829
G1 X129.653 Y116.775 E9.99166
G1 X129.596 Y117.637 E10.00791
G1 X129.475 Y118.555 E10.02532
G1 X129.341 Y119.269 E10.03899
G1 X129.031 Y120.215 E10.05771
G1 X128.677 Y121.071 E10.07514
G1 X128.363 Y121.726 E10.0888
G1 X127.819 Y122.561 E10.10755
G1 X127.254 Y123.299 E10.12503
G1 X126.781 Y123.851 E10.13871
G1 X126.024 Y124.528 E10.15781
G1 X125.287 Y125.092 E10.17527
G1 X124.687 Y125.501 E10.18893
G1 X123.802 Y125.949 E10.20758
G1 X122.945 Y126.304 E10.22503
G1 X122.259 Y126.544 E10.2387
G1 X121.281 Y126.749 E10.2575
G1 X120.363 Y126.87 E10.27492
G1 X119.501 Y126.927 E10.29117
G1 X94.499 Y126.927 E10.76147
G1 X93.637 Y126.87 E10.77772
G1 X92.719 Y126.749 E10.79514
G1 X92.005 Y126.615 E10.8088
G1 X91.055 Y126.304 E10.82761
G1 X90.198 Y125.949 E10.84505
G1 X89.543 Y125.634 E10.85873
G1 X88.713 Y125.092 E10.87737
G1 X87.976 Y124.528 E10.89483
G1 X87.424 Y124.056 E10.90849
G1 X86.746 Y123.299 E10.92761
G1 X86.181 Y122.561 E10.94509
G1 X85.772 Y121.961 E10.95875
G1 X85.323 Y121.071 E10.9775
G1 X84.969 Y120.215 E10.99493
G1 X84.729 Y119.53 E11.00858
G1 X84.525 Y118.558 E11.02726
G1 X84.404 Y117.643 E11.04462
G1 X84.347 Y116.778 E11.06093
G1 X84.347 Y101.179 E11.35436
G1 X84.387 Y100.454 E11.36801
G1 X84.506 Y99.737 E11.38169
G1 X84.704 Y99.038 E11.39535
G1 X84.977 Y98.365 E11.40901
G1 X85.322 Y97.726 E11.42267
G1 X85.736 Y97.129 E11.43634
G1 X86.212 Y96.581 E11.44999
G1 X86.746 Y96.088 E11.46366
G0 F3600 X87.136 Y96.288
G1 F1800 X87.715 Y95.888 E11.4769
G1 X88.336 Y95.556 E11.49015
G1 X88.99 Y95.296 E11.50339
G1 X89.67 Y95.112 E11.51664
G1 X90.366 Y95.006 E11.52988
G1 X90.973 Y94.979 E11.54131
G1 X92.914 Y94.987 E11.57782
G1 X93.616 Y95.03 E11.59105
G1 X94.283 Y95.147 E11.60379
G1 X94.296 Y94.921 E11.60805
G1 X94.415 Y94.227 E11.62129
G1 X94.613 Y93.552 E11.63452
G1 X94.885 Y92.903 E11.64776
G1 X95.305 Y92.173 E11.6636
G1 X96.609 Y90.227 E11.70767
G1 X97.034 Y89.665 E11.72092
G1 X97.519 Y89.155 E11.73416
G1 X98.038 Y88.719 E11.74691
G1 X98.483 Y88.385 E11.75738
G1 X99.069 Y87.995 E11.77062
G1 X99.696 Y87.674 E11.78387
G1 X100.355 Y87.427 E11.79711
G1 X101.038 Y87.255 E11.81035
G1 X101.735 Y87.162 E11.82358
G1 X102.205 Y87.144 E11.83243
G1 X104.765 Y87.144 E11.88058
G1 X105.468 Y87.184 E11.89383
G1 X105.923 Y87.262 E11.90251
G1 X106.098 Y87.262 E11.90581
G1 X106.801 Y87.302 E11.91905
G1 X107.495 Y87.421 E11.9323
G1 X108.17 Y87.619 E11.94553
G1 X108.476 Y87.747 E11.95177
G1 X108.9 Y87.579 E11.96035
G1 X109.58 Y87.395 E11.9736
G1 X110.276 Y87.289 E11.98684
G1 X110.857 Y87.262 E11.99778
G1 X112.057 Y87.262 E12.02035
G1 X112.76 Y87.302 E12.0336
G1 X113.454 Y87.421 E12.04684
G1 X114.129 Y87.619 E12.06008
G1 X114.778 Y87.891 E12.07331
G1 X115.392 Y88.236 E12.08656
G1 X115.963 Y88.647 E12.09979
G1 X116.484 Y89.121 E12.11304
