;FLAVOR:RepRap
;TIME:634
;Filament used: 0.0887169m
;Layer height: 0.1
;Generated with Cura_SteamEngine 2.4.0
M190 S60
M104 S205
M109 S205
G28 ;Home
G1 Z15.0 F6000 ;Move the platform down 15mm
;Prime the extruder
G92 E0
G1 F200 E3
G92 E0
;LAYER_COUNT:108
;LAYER:0
M107
G1 F1500 E-6.5
G0 F3600 X102.694 Y94.739 Z0.3
;TYPE:SKIRT
G1 F1500 E0
G1 F1800 X103.278 Y94.207 E0.01486
G1 X103.913 Y93.738 E0.02971
G1 X104.592 Y93.335 E0.04456
G1 X105.309 Y93.002 E0.05943
G1 X106.055 Y92.744 E0.07428
G1 X106.823 Y92.563 E0.08912
G1 X107.606 Y92.46 E0.10398
G1 X108.229 Y92.435 E0.11571
G1 X110.423 Y92.435 E0.15698
G1 X111.212 Y92.475 E0.17184
G1 X111.992 Y92.594 E0.18668
G1 X112.757 Y92.792 E0.20154
G1 X113.497 Y93.066 E0.21639
G1 X114.206 Y93.414 E0.23124
G1 X114.877 Y93.832 E0.24612
G1 X115.501 Y94.315 E0.26096
G1 X116.074 Y94.858 E0.27581
G1 X116.589 Y95.457 E0.29067
G1 X117.04 Y96.105 E0.30552
G1 X117.263 Y96.486 E0.31382
G1 X117.377 Y96.694 E0.31828
G1 X117.721 Y97.405 E0.33314
G1 X117.991 Y98.147 E0.34799
G1 X118.185 Y98.912 E0.36284
G1 X118.301 Y99.694 E0.37771
G1 X118.337 Y100.482 E0.39255
G1 X118.293 Y101.271 E0.40741
G1 X118.169 Y102.051 E0.42227
G1 X117.968 Y102.814 E0.43711
G1 X117.69 Y103.554 E0.45198
G1 X117.225 Y104.457 E0.47109
G1 X116.2 Y106.165 E0.50856
G1 X115.535 Y107.566 E0.53773
G1 X115.014 Y109.02 E0.56678
G1 X114.635 Y110.53 E0.59607
G1 X114.414 Y112.007 E0.62416
G1 X114.337 Y114.056 E0.66273
G1 X114.267 Y114.843 E0.67759
G1 X114.118 Y115.619 E0.69246
G1 X113.892 Y116.375 E0.7073
G1 X113.59 Y117.105 E0.72216
G1 X113.216 Y117.8 E0.737
G1 X112.774 Y118.455 E0.75187
G1 X112.268 Y119.061 E0.76672
G1 X111.703 Y119.613 E0.78158
G1 X111.085 Y120.104 E0.79642
G1 X110.421 Y120.531 E0.81127
G1 X109.717 Y120.889 E0.82613
G1 X108.98 Y121.173 E0.84099
G1 X108.218 Y121.382 E0.85585
G1 X107.439 Y121.512 E0.87071
G1 X106.544 Y121.564 E0.88757
G1 X102.235 Y121.565 E0.96863
G1 X101.446 Y121.525 E0.98349
G1 X100.666 Y121.406 E0.99833
G1 X99.901 Y121.208 E1.01319
G1 X99.16 Y120.934 E1.02805
G1 X98.451 Y120.587 E1.0429
G1 X97.781 Y120.17 E1.05775
G1 X97.156 Y119.687 E1.0726
G1 X96.583 Y119.143 E1.08747
G1 X96.069 Y118.544 E1.10231
G1 X95.617 Y117.896 E1.11718
G1 X95.233 Y117.206 E1.13203
G1 X94.921 Y116.481 E1.14688
G1 X94.684 Y115.727 E1.16174
G1 X94.524 Y114.954 E1.17659
G1 X94.443 Y114.169 E1.19144
G1 X94.443 Y113.379 E1.2063
G1 X94.522 Y112.593 E1.22116
G1 X94.686 Y111.795 E1.23648
G1 X95.381 Y109.133 E1.28823
G1 X95.522 Y108.655 E1.29761
G1 X96.112 Y106.87 E1.33297
G1 X96.311 Y106.335 E1.34371
G1 X97.747 Y102.866 E1.41433
G1 X98.074 Y102.174 E1.42873
G1 X99.843 Y98.862 E1.49936
G1 X100.196 Y98.267 E1.51237
G1 X101.702 Y95.965 E1.56412
G1 X102.167 Y95.327 E1.57897
G1 X102.694 Y94.739 E1.59382
G0 F3600 X103.006 Y94.992
G1 F1800 X103.579 Y94.479 E1.60829
G1 X104.201 Y94.027 E1.62275
G1 X104.868 Y93.643 E1.63723
G1 X105.57 Y93.329 E1.6517
G1 X106.301 Y93.091 E1.66616
G1 X107.053 Y92.929 E1.68063
G1 X107.818 Y92.846 E1.6951
G1 X108.229 Y92.835 E1.70284
G1 X110.423 Y92.835 E1.74411
G1 X111.191 Y92.875 E1.75857
G1 X111.951 Y92.994 E1.77304
G1 X112.694 Y93.192 E1.78751
G1 X113.413 Y93.466 E1.80198
G1 X114.099 Y93.813 E1.81644
G1 X114.746 Y94.229 E1.83091
G1 X115.346 Y94.71 E1.84538
G1 X115.893 Y95.251 E1.85985
G1 X116.381 Y95.846 E1.87432
G1 X116.912 Y96.678 E1.89289
G1 X117.026 Y96.886 E1.89735
G1 X117.36 Y97.579 E1.91182
G1 X117.621 Y98.303 E1.9263
G1 X117.805 Y99.05 E1.94077
G1 X117.91 Y99.812 E1.95524
G1 X117.936 Y100.58 E1.96969
G1 X117.881 Y101.348 E1.98418
G1 X117.748 Y102.105 E1.99863
G1 X117.536 Y102.845 E2.01311
G1 X117.249 Y103.558 E2.02757
G1 X116.882 Y104.251 E2.04232
G1 X115.845 Y105.978 E2.08021
G1 X115.165 Y107.413 E2.11009
G1 X114.632 Y108.899 E2.13978
G1 X114.241 Y110.456 E2.16998
G1 X114.015 Y111.969 E2.19875
G1 X113.937 Y114.041 E2.23776
G1 X113.868 Y114.807 E2.25223
G1 X113.72 Y115.562 E2.2667
G1 X113.495 Y116.298 E2.28117
G1 X113.194 Y117.006 E2.29565
G1 X112.822 Y117.679 E2.31011
G1 X112.382 Y118.309 E2.32457
G1 X111.878 Y118.891 E2.33905
G1 X111.317 Y119.417 E2.35351
G1 X110.705 Y119.882 E2.36797
G1 X110.047 Y120.281 E2.38245
G1 X109.352 Y120.61 E2.39691
G1 X108.626 Y120.865 E2.41139
G1 X107.878 Y121.042 E2.42584
G1 X107.115 Y121.142 E2.44032
G1 X106.544 Y121.164 E2.45107
G1 X102.235 Y121.165 E2.53212
G1 X101.467 Y121.125 E2.54659
G1 X100.707 Y121.006 E2.56106
G1 X99.963 Y120.808 E2.57554
G1 X99.245 Y120.535 E2.58999
G1 X98.558 Y120.188 E2.60447
G1 X97.911 Y119.772 E2.61894
G1 X97.311 Y119.291 E2.6334
G1 X96.764 Y118.75 E2.64787
G1 X96.276 Y118.155 E2.66235
G1 X95.853 Y117.513 E2.67681
G1 X95.498 Y116.831 E2.69127
G1 X95.216 Y116.115 E2.70575
G1 X95.01 Y115.374 E2.72022
G1 X94.882 Y114.616 E2.73468
G1 X94.833 Y113.848 E2.74915
G1 X94.865 Y113.08 E2.76361
G1 X94.976 Y112.318 E2.7781
G1 X95.073 Y111.896 E2.78624
G1 X95.768 Y109.234 E2.83799
G1 X95.902 Y108.781 E2.84688
G1 X96.492 Y106.996 E2.88224
G1 X96.681 Y106.488 E2.89244
G1 X98.117 Y103.019 E2.96306
G1 X98.427 Y102.363 E2.97671
G1 X100.196 Y99.051 E3.04734
G1 X100.53 Y98.486 E3.05969
G1 X102.036 Y96.184 E3.11143
G1 X102.49 Y95.563 E3.1259
G1 X103.006 Y94.992 E3.14038
G0 F3600 X103.318 Y95.247
G1 F1800 X103.878 Y94.751 E3.15445
G1 X104.488 Y94.318 E3.16852
G1 X105.141 Y93.953 E3.1826
G1 X105.829 Y93.659 E3.19667
G1 X106.544 Y93.441 E3.21073
G1 X107.279 Y93.3 E3.22481
G1 X108.229 Y93.235 E3.24272
G1 X110.423 Y93.235 E3.28399
G1 X111.17 Y93.275 E3.29806
G1 X111.908 Y93.394 E3.31212
G1 X112.63 Y93.592 E3.32621
G1 X113.326 Y93.865 E3.34027
G1 X113.989 Y94.212 E3.35435
G1 X114.612 Y94.627 E3.36843
G1 X115.186 Y95.106 E3.38249
G1 X115.707 Y95.643 E3.39656
G1 X116.166 Y96.233 E3.41062
G1 X116.561 Y96.871 E3.42474
G1 X116.675 Y97.079 E3.4292
G1 X116.999 Y97.753 E3.44327
G1 X117.25 Y98.458 E3.45735
G1 X117.423 Y99.186 E3.47142
G1 X117.518 Y99.928 E3.48549
G1 X117.533 Y100.676 E3.49956
G1 X117.468 Y101.421 E3.51363
G1 X117.324 Y102.155 E3.5277
G1 X117.103 Y102.869 E3.54176
G1 X116.807 Y103.556 E3.55583
G1 X116.539 Y104.045 E3.56632
G1 X115.494 Y105.787 E3.60453
G1 X114.797 Y107.256 E3.63512
G1 X114.247 Y108.789 E3.66576
G1 X113.85 Y110.369 E3.6964
G1 X113.615 Y111.94 E3.72628
G1 X113.537 Y114.026 E3.76555
G1 X113.469 Y114.771 E3.77962
G1 X113.322 Y115.505 E3.7937
G1 X113.098 Y116.218 E3.80776
G1 X112.798 Y116.904 E3.82184
G1 X112.427 Y117.554 E3.83592
G1 X111.989 Y118.16 E3.84999
G1 X111.489 Y118.716 E3.86405
G1 X110.932 Y119.216 E3.87813
G1 X110.326 Y119.653 E3.89218
G1 X109.675 Y120.023 E3.90627
G1 X108.99 Y120.322 E3.92033
G1 X108.276 Y120.546 E3.93441
G1 X107.542 Y120.692 E3.94848
G1 X106.544 Y120.764 E3.9673
G1 X102.235 Y120.765 E4.04836
G1 X101.488 Y120.725 E4.06243
G1 X100.749 Y120.606 E4.07651
G1 X100.028 Y120.409 E4.09057
G1 X99.331 Y120.135 E4.10466
G1 X98.668 Y119.789 E4.11873
G1 X98.045 Y119.374 E4.13281
G1 X97.471 Y118.895 E4.14687
G1 X96.951 Y118.358 E4.16093
G1 X96.491 Y117.768 E4.175
G1 X96.096 Y117.132 E4.18909
G1 X95.772 Y116.458 E4.20315
G1 X95.521 Y115.753 E4.21723
G1 X95.347 Y115.026 E4.23129
G1 X95.252 Y114.284 E4.24536
G1 X95.237 Y113.536 E4.25944
G1 X95.301 Y112.791 E4.2735
G1 X95.46 Y111.997 E4.28873
G1 X96.155 Y109.335 E4.34049
G1 X96.282 Y108.906 E4.3489
G1 X96.872 Y107.121 E4.38427
G1 X97.05 Y106.641 E4.3939
G1 X98.486 Y103.172 E4.46452
G1 X98.78 Y102.551 E4.47744
G1 X100.549 Y99.239 E4.54807
G1 X100.865 Y98.705 E4.55975
G1 X102.371 Y96.403 E4.61149
G1 X102.814 Y95.8 E4.62557
G1 X103.318 Y95.247 E4.63964
G0 F3600 X103.629 Y95.503
G1 F1800 X104.177 Y95.026 E4.65331
G1 X104.774 Y94.612 E4.66697
G1 X105.412 Y94.266 E4.68062
G1 X106.085 Y93.993 E4.69429
G1 X106.784 Y93.795 E4.70795
G1 X107.501 Y93.675 E4.72163
G1 X108.229 Y93.635 E4.73534
G1 X110.423 Y93.635 E4.77661
G1 X111.148 Y93.675 E4.79027
G1 X111.865 Y93.794 E4.80394
G1 X112.564 Y93.992 E4.81761
G1 X113.237 Y94.265 E4.83127
G1 X113.876 Y94.61 E4.84493
G1 X114.473 Y95.024 E4.85859
G1 X115.021 Y95.5 E4.87225
G1 X115.514 Y96.034 E4.88592
G1 X115.944 Y96.619 E4.89958
G1 X116.211 Y97.063 E4.90932
G1 X116.325 Y97.271 E4.91378
G1 X116.638 Y97.926 E4.92744
G1 X116.878 Y98.612 E4.94111
G1 X117.041 Y99.32 E4.95478
G1 X117.125 Y100.041 E4.96843
G1 X117.129 Y100.767 E4.98209
G1 X117.053 Y101.49 E4.99576
G1 X116.899 Y102.2 E5.00943
G1 X116.667 Y102.888 E5.02309
G1 X116.196 Y103.839 E5.04305
G1 X115.144 Y105.592 E5.08151
G1 X114.422 Y107.115 E5.11321
G1 X113.866 Y108.664 E5.14417
G1 X113.457 Y110.295 E5.1758
G1 X113.216 Y111.902 E5.20637
G1 X113.137 Y114.011 E5.24606
G1 X113.07 Y114.735 E5.25974
G1 X112.924 Y115.446 E5.27339
G1 X112.701 Y116.137 E5.28705
G1 X112.402 Y116.8 E5.30073
G1 X112.033 Y117.425 E5.31439
G1 X111.598 Y118.007 E5.32805
G1 X111.101 Y118.536 E5.34171
G1 X110.549 Y119.008 E5.35537
G1 X109.948 Y119.417 E5.36904
G1 X109.307 Y119.757 E5.38269
G1 X108.631 Y120.025 E5.39637
G1 X107.931 Y120.216 E5.41002
G1 X107.213 Y120.33 E5.4237
G1 X106.544 Y120.364 E5.4363
G1 X102.235 Y120.365 E5.51735
G1 X101.509 Y120.325 E5.53103
G1 X100.793 Y120.206 E5.54468
G1 X100.094 Y120.009 E5.55834
G1 X99.421 Y119.736 E5.572
G1 X98.781 Y119.391 E5.58568
G1 X98.184 Y118.977 E5.59935
G1 X97.636 Y118.501 E5.613
G1 X97.143 Y117.967 E5.62667
G1 X96.712 Y117.382 E5.64034
G1 X96.348 Y116.754 E5.65399
G1 X96.056 Y116.089 E5.66765
G1 X95.838 Y115.396 E5.68132
G1 X95.697 Y114.683 E5.69499
G1 X95.636 Y113.96 E5.70864
G1 X95.654 Y113.233 E5.72232
G1 X95.753 Y112.514 E5.73597
G1 X95.847 Y112.098 E5.74399
G1 X96.542 Y109.436 E5.79575
G1 X96.661 Y109.032 E5.80367
G1 X97.251 Y107.247 E5.83903
G1 X97.42 Y106.794 E5.84813
G1 X98.856 Y103.325 E5.91875
G1 X99.132 Y102.74 E5.93092
G1 X100.901 Y99.428 E6.00155
G1 X101.2 Y98.924 E6.01257
G1 X102.706 Y96.622 E6.06432
G1 X103.136 Y96.037 E6.07797
G1 X103.629 Y95.503 E6.09165
G0 F3600 X103.939 Y95.759
G1 F1800 X104.474 Y95.302 E6.10488
G1 X105.057 Y94.908 E6.11812
G1 X105.682 Y94.583 E6.13137
G1 X106.339 Y94.33 E6.14461
G1 X107.02 Y94.154 E6.15784
G1 X107.717 Y94.056 E6.17108
G1 X108.229 Y94.035 E6.18072
G1 X110.423 Y94.035 E6.22199
G1 X111.126 Y94.075 E6.23524
G1 X111.82 Y94.194 E6.24848
G1 X112.495 Y94.392 E6.26171
G1 X113.144 Y94.664 E6.27495
G1 X113.758 Y95.009 E6.2882
G1 X114.329 Y95.42 E6.30143
G1 X114.85 Y95.894 E6.31468
G1 X115.314 Y96.424 E6.32793
G1 X115.86 Y97.255 E6.34664
G1 X115.974 Y97.463 E6.3511
G1 X116.277 Y98.099 E6.36435
G1 X116.505 Y98.764 E6.37757
G1 X116.657 Y99.452 E6.39083
G1 X116.73 Y100.152 E6.40407
G1 X116.723 Y100.856 E6.41731
G1 X116.637 Y101.555 E6.43056
G1 X116.471 Y102.239 E6.4438
G1 X116.229 Y102.9 E6.45704
G1 X115.853 Y103.634 E6.47255
G1 X114.785 Y105.414 E6.5116
G1 X114.057 Y106.95 E6.54357
G1 X113.482 Y108.552 E6.57559
G1 X113.065 Y110.212 E6.60778
G1 X112.818 Y111.862 E6.63917
G1 X112.738 Y113.996 E6.67934
G1 X112.671 Y114.697 E6.69258
G1 X112.526 Y115.386 E6.70583
G1 X112.304 Y116.054 E6.71907
G1 X112.007 Y116.692 E6.73231
G1 X111.64 Y117.293 E6.74555
G1 X111.207 Y117.848 E6.7588
G1 X110.714 Y118.351 E6.77204
G1 X110.167 Y118.794 E6.78528
G1 X109.573 Y119.173 E6.79854
G1 X108.941 Y119.481 E6.81176
G1 X108.277 Y119.716 E6.82501
G1 X107.591 Y119.875 E6.83826
G1 X106.543 Y119.964 E6.85804
G1 X102.234 Y119.965 E6.9391
G1 X101.532 Y119.925 E6.95232
G1 X100.838 Y119.806 E6.96557
G1 X100.162 Y119.609 E6.97881
G1 X99.513 Y119.336 E6.99206
G1 X98.899 Y118.992 E7.0053
G1 X98.328 Y118.58 E7.01854
G1 X97.807 Y118.107 E7.03178
G1 X97.343 Y117.577 E7.04503
G1 X96.943 Y116.998 E7.05827
G1 X96.61 Y116.377 E7.07152
G1 X96.35 Y115.723 E7.08476
G1 X96.166 Y115.044 E7.09799
G1 X96.06 Y114.348 E7.11124
G1 X96.034 Y113.644 E7.12449
G1 X96.088 Y112.942 E7.13773
G1 X96.234 Y112.199 E7.15198
G1 X96.929 Y109.537 E7.20373
G1 X97.041 Y109.157 E7.21118
G1 X97.631 Y107.372 E7.24654
G1 X97.789 Y106.947 E7.25507
G1 X99.225 Y103.478 E7.3257
G1 X99.485 Y102.928 E7.33714
G1 X101.254 Y99.616 E7.40777
G1 X101.535 Y99.143 E7.41812
G1 X103.041 Y96.841 E7.46986
G1 X103.459 Y96.274 E7.48311
G1 X103.939 Y95.759 E7.49636
G0 F3600 X104.248 Y96.017
G1 F1800 X104.77 Y95.58 E7.50916
G1 X105.339 Y95.206 E7.52197
G1 X105.948 Y94.902 E7.53478
G1 X106.589 Y94.672 E7.54759
G1 X107.252 Y94.518 E7.56039
G1 X108.229 Y94.435 E7.57883
G1 X110.423 Y94.435 E7.6201
G1 X111.103 Y94.475 E7.63292
G1 X111.773 Y94.594 E7.64572
G1 X112.425 Y94.791 E7.65853
G1 X113.049 Y95.063 E7.67133
G1 X113.637 Y95.407 E7.68415
G1 X114.181 Y95.817 E7.69696
G1 X114.672 Y96.288 E7.70976
G1 X115.106 Y96.813 E7.72257
G1 X115.509 Y97.447 E7.7367
G1 X115.623 Y97.655 E7.74117
G1 X115.915 Y98.271 E7.75399
G1 X116.132 Y98.916 E7.76679
G1 X116.273 Y99.582 E7.7796
G1 X116.334 Y100.26 E7.7924
G1 X116.316 Y100.941 E7.80522
G1 X116.217 Y101.615 E7.81803
G1 X116.041 Y102.272 E7.83082
G1 X115.789 Y102.905 E7.84364
G1 X115.51 Y103.428 E7.85479
G1 X114.435 Y105.219 E7.89408
G1 X113.683 Y106.805 E7.9271
G1 X113.099 Y108.433 E7.95963
G1 X112.672 Y110.136 E7.99266
G1 X112.419 Y111.824 E8.02477
G1 X112.338 Y113.981 E8.06537
G1 X112.273 Y114.659 E8.07818
G1 X112.128 Y115.325 E8.091
G1 X111.907 Y115.968 E8.10379
G1 X111.611 Y116.582 E8.11661
G1 X111.246 Y117.157 E8.12943
G1 X110.816 Y117.685 E8.14224
G1 X110.327 Y118.158 E8.15503
G1 X109.786 Y118.572 E8.16785
G1 X109.2 Y118.919 E8.18066
G1 X108.578 Y119.195 E8.19346
G1 X107.928 Y119.396 E8.20626
G1 X107.258 Y119.52 E8.21907
G1 X106.543 Y119.564 E8.23255
G1 X102.234 Y119.565 E8.3136
G1 X101.555 Y119.525 E8.3264
G1 X100.884 Y119.406 E8.33922
G1 X100.232 Y119.209 E8.35203
G1 X99.608 Y118.937 E8.36483
G1 X99.02 Y118.594 E8.37764
G1 X98.476 Y118.184 E8.39045
G1 X97.984 Y117.713 E8.40326
G1 X97.551 Y117.188 E8.41606
G1 X97.182 Y116.616 E8.42887
G1 X96.883 Y116.004 E8.44168
G1 X96.657 Y115.362 E8.45448
G1 X96.508 Y114.698 E8.46728
G1 X96.439 Y114.02 E8.4801
G1 X96.449 Y113.34 E8.4929
G1 X96.538 Y112.665 E8.5057
G1 X96.621 Y112.3 E8.51274
G1 X97.316 Y109.638 E8.5645
G1 X97.421 Y109.283 E8.57146
G1 X98.011 Y107.498 E8.60682
G1 X98.159 Y107.1 E8.61481
G1 X99.595 Y103.631 E8.68544
G1 X99.838 Y103.116 E8.69615
G1 X101.607 Y99.804 E8.76678
G1 X101.869 Y99.362 E8.77644
G1 X103.375 Y97.06 E8.82819
G1 X103.781 Y96.513 E8.841
G1 X104.248 Y96.017 E8.85382
G0 F3600 X104.556 Y96.277
G1 F1800 X105.064 Y95.86 E8.86618
G1 X105.619 Y95.508 E8.87854
G1 X106.212 Y95.226 E8.89089
G1 X106.835 Y95.018 E8.90325
G1 X107.479 Y94.887 E8.91561
G1 X108.229 Y94.835 E8.92975
G1 X110.423 Y94.835 E8.97102
G1 X111.079 Y94.875 E8.98339
G1 X111.725 Y94.994 E8.99574
G1 X112.352 Y95.191 E9.0081
G1 X112.95 Y95.463 E9.02046
G1 X113.511 Y95.805 E9.03282
G1 X114.026 Y96.213 E9.04518
G1 X114.488 Y96.68 E9.05754
G1 X114.889 Y97.2 E9.06989
G1 X115.158 Y97.64 E9.07959
G1 X115.272 Y97.848 E9.08405
G1 X115.553 Y98.442 E9.09641
G1 X115.758 Y99.066 E9.10877
G1 X115.887 Y99.71 E9.12112
G1 X115.936 Y100.365 E9.13348
G1 X115.906 Y101.021 E9.14583
G1 X115.796 Y101.669 E9.15819
G1 X115.608 Y102.299 E9.17056
G1 X115.345 Y102.901 E9.18292
G1 X115.167 Y103.222 E9.18982
G1 X114.081 Y105.032 E9.22953
G1 X113.316 Y106.644 E9.26309
G1 X112.715 Y108.321 E9.2966
G1 X112.278 Y110.062 E9.33037
G1 X112.02 Y111.786 E9.36316
G1 X111.938 Y113.966 E9.40419
G1 X111.874 Y114.62 E9.41655
G1 X111.73 Y115.261 E9.42891
G1 X111.51 Y115.88 E9.44127
G1 X111.216 Y116.468 E9.45364
G1 X110.853 Y117.016 E9.466
G1 X110.427 Y117.515 E9.47834
G1 X109.942 Y117.959 E9.49071
G1 X109.408 Y118.341 E9.50306
G1 X108.831 Y118.655 E9.51542
G1 X108.22 Y118.897 E9.52778
G1 X107.584 Y119.062 E9.54014
G1 X106.933 Y119.15 E9.5525
G1 X106.543 Y119.164 E9.55984
G1 X102.234 Y119.165 E9.64089
G1 X101.578 Y119.125 E9.65325
G1 X100.932 Y119.006 E9.66561
G1 X100.306 Y118.809 E9.67796
G1 X99.707 Y118.538 E9.69032
G1 X99.146 Y118.196 E9.70268
G1 X98.631 Y117.788 E9.71504
G1 X98.169 Y117.321 E9.7274
G1 X97.768 Y116.801 E9.73975
G1 X97.432 Y116.237 E9.7521
G1 X97.167 Y115.635 E9.76447
G1 X96.978 Y115.006 E9.77683
G1 X96.866 Y114.359 E9.78918
G1 X96.833 Y113.703 E9.80153
G1 X96.881 Y113.048 E9.81389
G1 X97.008 Y112.401 E9.82629
G1 X97.703 Y109.739 E9.87804
G1 X97.801 Y109.408 E9.88453
G1 X98.391 Y107.623 E9.9199
G1 X98.529 Y107.253 E9.92733
G1 X99.965 Y103.784 E9.99795
