;FLAVOR:RepRap
;TIME:5407
;Filament used: 1.12059m
;Layer height: 0.1
;Generated with Cura_SteamEngine 2.4.0
M190 S60
M104 S205
M109 S205
G28 ;Home
G1 Z15.0 F6000 ;Move the platform down 15mm
;Prime the extruder
G92 E0
G1 F200 E3
G92 E0
;LAYER_COUNT:35
;LAYER:0
M107
G1 F1500 E-6.5
G0 F3600 X71.67 Y82.826 Z0.3
;TYPE:SKIRT
G1 F1500 E0
G1 F1800 X72.269 Y82.311 E0.01486
G1 X72.917 Y81.86 E0.02971
G1 X73.608 Y81.476 E0.04458
G1 X74.333 Y81.164 E0.05943
G1 X75.086 Y80.927 E0.07428
G1 X75.86 Y80.768 E0.08914
G1 X76.645 Y80.687 E0.10398
G1 X77.047 Y80.677 E0.11155
G1 X136.953 Y80.677 E1.23841
G1 X137.742 Y80.717 E1.25327
G1 X138.522 Y80.836 E1.26812
G1 X139.287 Y81.034 E1.28298
G1 X140.027 Y81.308 E1.29782
G1 X140.736 Y81.656 E1.31268
G1 X141.407 Y82.074 E1.32755
G1 X142.031 Y82.557 E1.3424
G1 X142.604 Y83.1 E1.35724
G1 X143.119 Y83.699 E1.3721
G1 X143.57 Y84.347 E1.38695
G1 X143.954 Y85.038 E1.40183
G1 X144.266 Y85.763 E1.41667
G1 X144.503 Y86.516 E1.43152
G1 X144.662 Y87.29 E1.44638
G1 X144.743 Y88.075 E1.46123
G1 X144.753 Y88.477 E1.46879
G1 X144.753 Y113.42 E1.93799
G1 X144.713 Y114.209 E1.95285
G1 X144.594 Y114.989 E1.96769
G1 X144.396 Y115.754 E1.98255
G1 X144.122 Y116.494 E1.9974
G1 X143.774 Y117.203 E2.01225
G1 X143.176 Y118.123 E2.03289
G1 X141.558 Y120.264 E2.08337
G1 X141.114 Y120.799 E2.09645
G1 X138.704 Y123.458 E2.16395
G1 X138.305 Y123.868 E2.17472
G1 X137.06 Y125.054 E2.20706
G1 X136.461 Y125.569 E2.22192
G1 X135.784 Y126.039 E2.23742
G1 X133.077 Y127.714 E2.2973
G1 X132.628 Y127.971 E2.30703
G1 X131.201 Y128.728 E2.33742
G1 X130.486 Y129.063 E2.35227
G1 X130.066 Y129.22 E2.36071
G1 X127.043 Y130.252 E2.42079
G1 X126.551 Y130.402 E2.43047
G1 X123.283 Y131.282 E2.49413
G1 X122.821 Y131.391 E2.50306
G1 X119.371 Y132.098 E2.56931
G1 X118.909 Y132.178 E2.57813
G1 X115.377 Y132.683 E2.64524
G1 X114.929 Y132.734 E2.65372
G1 X111.313 Y133.039 E2.72198
G1 X110.874 Y133.064 E2.73025
G1 X107.216 Y133.166 E2.79909
G1 X106.784 Y133.166 E2.80722
G1 X103.126 Y133.065 E2.87605
G1 X102.685 Y133.04 E2.88436
G1 X99.071 Y132.735 E2.95258
G1 X98.623 Y132.684 E2.96106
G1 X95.091 Y132.179 E3.02818
G1 X94.631 Y132.1 E3.03696
G1 X91.181 Y131.394 E3.1032
G1 X90.834 Y131.314 E3.1099
G1 X89.188 Y130.898 E3.14183
G1 X88.828 Y130.798 E3.14886
G1 X85.631 Y129.825 E3.21172
G1 X85.251 Y129.699 E3.21925
G1 X83.804 Y129.176 E3.2482
G1 X83.076 Y128.87 E3.26305
G1 X82.646 Y128.647 E3.27216
G1 X79.806 Y127.058 E3.33338
G1 X79.358 Y126.787 E3.34323
G1 X78.062 Y125.943 E3.37232
G1 X77.423 Y125.479 E3.38717
G1 X76.799 Y124.918 E3.40296
G1 X74.319 Y122.434 E3.46898
G1 X73.809 Y121.871 E3.48327
G1 X71.521 Y119.083 E3.55112
G1 X71.176 Y118.629 E3.56184
G1 X70.672 Y117.914 E3.5783
G1 X70.25 Y117.246 E3.59316
G1 X69.898 Y116.539 E3.60802
G1 X69.619 Y115.801 E3.62286
G1 X69.417 Y115.037 E3.63772
G1 X69.292 Y114.258 E3.65256
G1 X69.247 Y113.42 E3.66835
G1 X69.247 Y88.477 E4.13754
G1 X69.287 Y87.688 E4.1524
G1 X69.406 Y86.908 E4.16724
G1 X69.604 Y86.143 E4.18211
G1 X69.878 Y85.403 E4.19695
G1 X70.226 Y84.694 E4.21181
G1 X70.644 Y84.023 E4.22668
G1 X71.127 Y83.399 E4.24152
G1 X71.67 Y82.826 E4.25637
G0 F3600 X72.063 Y83.007
G1 F1800 X72.658 Y82.519 E4.27085
G1 X73.3 Y82.096 E4.28531
G1 X73.983 Y81.741 E4.29979
G1 X74.698 Y81.46 E4.31424
G1 X75.44 Y81.254 E4.32872
G1 X76.198 Y81.126 E4.34318
G1 X77.047 Y81.077 E4.35918
G1 X136.953 Y81.077 E5.48605
G1 X137.721 Y81.117 E5.50051
G1 X138.481 Y81.236 E5.51498
G1 X139.224 Y81.434 E5.52945
G1 X139.943 Y81.708 E5.54392
G1 X140.629 Y82.055 E5.55838
G1 X141.276 Y82.471 E5.57285
G1 X141.876 Y82.952 E5.58732
G1 X142.423 Y83.493 E5.60179
G1 X142.911 Y84.088 E5.61626
G1 X143.334 Y84.73 E5.63072
G1 X143.689 Y85.413 E5.6452
G1 X143.97 Y86.128 E5.65965
G1 X144.176 Y86.87 E5.67414
G1 X144.304 Y87.628 E5.6886
G1 X144.353 Y88.477 E5.7046
G1 X144.353 Y113.42 E6.17379
G1 X144.313 Y114.188 E6.18826
G1 X144.194 Y114.948 E6.20273
G1 X143.996 Y115.691 E6.21719
G1 X143.722 Y116.41 E6.23166
G1 X143.375 Y117.096 E6.24612
G1 X142.857 Y117.882 E6.26383
G1 X141.239 Y120.023 E6.31431
G1 X140.818 Y120.531 E6.32672
G1 X138.408 Y123.19 E6.39423
G1 X138.029 Y123.578 E6.40443
G1 X136.784 Y124.764 E6.43677
G1 X136.2 Y125.265 E6.45125
G1 X135.574 Y125.699 E6.46558
G1 X132.867 Y127.374 E6.52546
G1 X132.441 Y127.618 E6.53469
G1 X131.014 Y128.375 E6.56508
G1 X130.317 Y128.7 E6.57954
G1 X129.937 Y128.841 E6.58717
G1 X126.914 Y129.873 E6.64725
G1 X126.447 Y130.015 E6.65643
G1 X123.179 Y130.895 E6.7201
G1 X122.741 Y130.999 E6.72857
G1 X119.291 Y131.706 E6.79481
G1 X118.852 Y131.783 E6.80319
G1 X115.32 Y132.288 E6.87031
G1 X114.895 Y132.336 E6.87835
G1 X111.279 Y132.641 E6.94661
G1 X110.863 Y132.664 E6.95445
G1 X107.205 Y132.766 E7.02329
G1 X106.795 Y132.766 E7.031
G1 X103.137 Y132.665 E7.09984
G1 X102.719 Y132.642 E7.10771
G1 X99.105 Y132.337 E7.17593
G1 X98.68 Y132.289 E7.18398
G1 X95.148 Y131.784 E7.25109
G1 X94.711 Y131.708 E7.25944
G1 X91.261 Y131.002 E7.32568
G1 X90.932 Y130.926 E7.33203
G1 X89.286 Y130.51 E7.36397
G1 X88.944 Y130.415 E7.37064
G1 X85.747 Y129.442 E7.4335
G1 X85.387 Y129.322 E7.44064
G1 X83.94 Y128.799 E7.46958
G1 X83.231 Y128.501 E7.48405
G1 X82.842 Y128.298 E7.4923
G1 X80.002 Y126.709 E7.55352
G1 X79.577 Y126.452 E7.56286
G1 X78.281 Y125.608 E7.59195
G1 X77.659 Y125.155 E7.60643
G1 X77.082 Y124.635 E7.62104
G1 X74.602 Y122.151 E7.68707
G1 X74.119 Y121.617 E7.70061
G1 X71.831 Y118.829 E7.76845
G1 X71.503 Y118.398 E7.77864
G1 X70.999 Y117.683 E7.7951
G1 X70.589 Y117.033 E7.80955
G1 X70.249 Y116.343 E7.82402
G1 X69.982 Y115.621 E7.8385
G1 X69.792 Y114.876 E7.85296
G1 X69.68 Y114.115 E7.86743
G1 X69.647 Y113.42 E7.88052
G1 X69.647 Y88.477 E8.34971
G1 X69.687 Y87.709 E8.36418
G1 X69.806 Y86.949 E8.37865
G1 X70.004 Y86.206 E8.39311
G1 X70.278 Y85.487 E8.40759
G1 X70.625 Y84.801 E8.42205
G1 X71.041 Y84.154 E8.43652
G1 X71.522 Y83.554 E8.45098
G1 X72.063 Y83.007 E8.46545
G0 F3600 X72.455 Y83.193
G1 F1800 X73.045 Y82.734 E8.47952
G1 X73.681 Y82.339 E8.4936
G1 X74.355 Y82.015 E8.50767
G1 X75.06 Y81.765 E8.52174
G1 X75.788 Y81.591 E8.53582
G1 X76.53 Y81.496 E8.54989
G1 X77.047 Y81.477 E8.55962
G1 X136.953 Y81.477 E9.68648
G1 X137.7 Y81.517 E9.70056
G1 X138.438 Y81.636 E9.71462
G1 X139.16 Y81.834 E9.7287
G1 X139.856 Y82.107 E9.74276
G1 X140.519 Y82.454 E9.75684
G1 X141.142 Y82.869 E9.77092
G1 X141.716 Y83.348 E9.78498
G1 X142.237 Y83.885 E9.79906
G1 X142.696 Y84.475 E9.81312
G1 X143.091 Y85.111 E9.8272
G1 X143.415 Y85.785 E9.84127
G1 X143.665 Y86.49 E9.85534
G1 X143.839 Y87.218 E9.86942
G1 X143.934 Y87.96 E9.88349
G1 X143.953 Y88.477 E9.89322
G1 X143.953 Y113.42 E10.36241
G1 X143.913 Y114.167 E10.37649
G1 X143.794 Y114.905 E10.39055
G1 X143.596 Y115.627 E10.40463
G1 X143.323 Y116.323 E10.41869
G1 X142.976 Y116.986 E10.43277
G1 X142.538 Y117.64 E10.44758
G1 X140.92 Y119.781 E10.49806
G1 X140.522 Y120.262 E10.5098
G1 X138.112 Y122.921 E10.5773
G1 X137.753 Y123.288 E10.58696
G1 X136.508 Y124.474 E10.61931
G1 X135.94 Y124.961 E10.63338
G1 X135.363 Y125.359 E10.64656
G1 X132.656 Y127.034 E10.70644
G1 X132.253 Y127.265 E10.71518
G1 X130.826 Y128.022 E10.74557
G1 X129.808 Y128.463 E10.76644
G1 X126.785 Y129.495 E10.82652
G1 X126.343 Y129.629 E10.83521
G1 X123.075 Y130.509 E10.89887
G1 X122.66 Y130.607 E10.90689
G1 X119.21 Y131.314 E10.97314
G1 X118.796 Y131.387 E10.98105
G1 X115.264 Y131.892 E11.04816
G1 X114.861 Y131.937 E11.05579
G1 X111.245 Y132.242 E11.12405
G1 X110.852 Y132.264 E11.13145
G1 X107.194 Y132.366 E11.20029
G1 X106.806 Y132.366 E11.20759
G1 X103.148 Y132.265 E11.27642
G1 X102.752 Y132.243 E11.28388
G1 X99.138 Y131.938 E11.35211
G1 X98.736 Y131.893 E11.35972
G1 X95.204 Y131.388 E11.42683
G1 X94.792 Y131.316 E11.4347
G1 X91.342 Y130.61 E11.50094
G1 X91.03 Y130.539 E11.50696
G1 X89.384 Y130.123 E11.53889
G1 X89.061 Y130.033 E11.5452
G1 X85.864 Y129.06 E11.60806
G1 X85.523 Y128.946 E11.61483
G1 X84.076 Y128.423 E11.64377
G1 X83.387 Y128.132 E11.65784
G1 X83.037 Y127.949 E11.66527
G1 X80.197 Y126.36 E11.72648
G1 X79.795 Y126.117 E11.73532
G1 X78.499 Y125.273 E11.76441
G1 X77.895 Y124.832 E11.77848
G1 X77.365 Y124.353 E11.79192
G1 X74.885 Y121.869 E11.85794
G1 X74.428 Y121.364 E11.87075
G1 X72.14 Y118.576 E11.9386
G1 X71.83 Y118.168 E11.94824
G1 X71.326 Y117.453 E11.96469
G1 X70.928 Y116.819 E11.97877
G1 X70.6 Y116.147 E11.99284
G1 X70.346 Y115.443 E12.00692
G1 X70.168 Y114.717 E12.02098
G1 X70.069 Y113.975 E12.03506
G1 X70.047 Y113.42 E12.04551
G1 X70.047 Y88.477 E12.5147
G1 X70.087 Y87.73 E12.52877
G1 X70.206 Y86.992 E12.54283
G1 X70.404 Y86.27 E12.55691
G1 X70.677 Y85.574 E12.57098
G1 X71.024 Y84.911 E12.58505
G1 X71.439 Y84.288 E12.59913
G1 X71.918 Y83.714 E12.6132
G1 X72.455 Y83.193 E12.62727
G0 F3600 X72.846 Y83.386
G1 F1800 X73.431 Y82.956 E12.64093
G1 X74.06 Y82.592 E12.6546
G1 X74.725 Y82.299 E12.66827
G1 X75.418 Y82.081 E12.68193
G1 X76.13 Y81.941 E12.69558
G1 X77.047 Y81.877 E12.71287
G1 X136.953 Y81.877 E13.83974
G1 X137.678 Y81.917 E13.8534
G1 X138.395 Y82.036 E13.86707
G1 X139.094 Y82.234 E13.88074
G1 X139.767 Y82.507 E13.8944
G1 X140.406 Y82.852 E13.90806
G1 X141.003 Y83.266 E13.92172
G1 X141.551 Y83.742 E13.93538
G1 X142.044 Y84.276 E13.94905
G1 X142.474 Y84.861 E13.9627
G1 X142.838 Y85.49 E13.97637
G1 X143.131 Y86.155 E13.99004
G1 X143.349 Y86.848 E14.00371
G1 X143.489 Y87.56 E14.01736
G1 X143.553 Y88.477 E14.03465
G1 X143.553 Y113.42 E14.50384
G1 X143.513 Y114.145 E14.5175
G1 X143.394 Y114.862 E14.53117
G1 X143.196 Y115.561 E14.54484
G1 X142.923 Y116.234 E14.5585
G1 X142.578 Y116.873 E14.57216
G1 X142.219 Y117.399 E14.58414
G1 X140.601 Y119.54 E14.63462
G1 X140.225 Y119.993 E14.64569
G1 X137.815 Y122.652 E14.7132
G1 X137.477 Y122.999 E14.72231
G1 X136.232 Y124.185 E14.75465
G1 X135.68 Y124.656 E14.7683
G1 X135.153 Y125.018 E14.78033
G1 X132.446 Y126.693 E14.84021
G1 X132.066 Y126.911 E14.84845
G1 X130.639 Y127.668 E14.87884
G1 X129.678 Y128.084 E14.89853
G1 X126.655 Y129.116 E14.95862
G1 X126.239 Y129.243 E14.9668
G1 X122.971 Y130.123 E15.03047
G1 X122.58 Y130.216 E15.03803
G1 X119.13 Y130.923 E15.10427
G1 X118.739 Y130.991 E15.11174
G1 X115.207 Y131.496 E15.17885
G1 X114.828 Y131.539 E15.18603
G1 X111.212 Y131.844 E15.25429
G1 X110.841 Y131.864 E15.26127
G1 X107.183 Y131.966 E15.33011
G1 X106.817 Y131.966 E15.337
G1 X103.159 Y131.865 E15.40583
G1 X102.786 Y131.845 E15.41286
G1 X99.172 Y131.54 E15.48108
G1 X98.793 Y131.497 E15.48825
G1 X95.261 Y130.992 E15.55537
G1 X94.872 Y130.924 E15.5628
G1 X91.422 Y130.218 E15.62904
G1 X91.128 Y130.151 E15.63471
G1 X89.482 Y129.735 E15.66665
G1 X89.177 Y129.65 E15.6726
G1 X85.98 Y128.677 E15.73546
G1 X85.659 Y128.57 E15.74183
G1 X84.212 Y128.047 E15.77077
G1 X83.232 Y127.6 E15.79103
G1 X80.392 Y126.011 E15.85225
G1 X80.013 Y125.782 E15.86058
G1 X78.717 Y124.938 E15.88967
G1 X78.131 Y124.508 E15.90334
G1 X77.648 Y124.07 E15.91561
G1 X75.168 Y121.586 E15.98163
G1 X74.737 Y121.11 E15.99371
G1 X72.449 Y118.322 E16.06155
G1 X72.157 Y117.938 E16.07063
G1 X71.653 Y117.223 E16.08708
G1 X71.267 Y116.607 E16.10076
G1 X70.952 Y115.952 E16.11443
G1 X70.711 Y115.267 E16.12809
G1 X70.546 Y114.56 E16.14175
G1 X70.46 Y113.839 E16.1554
G1 X70.447 Y113.42 E16.16329
G1 X70.447 Y88.477 E16.63248
G1 X70.487 Y87.752 E16.64614
G1 X70.606 Y87.035 E16.65981
G1 X70.804 Y86.336 E16.67348
G1 X71.077 Y85.663 E16.68714
G1 X71.422 Y85.024 E16.7008
G1 X71.836 Y84.427 E16.71446
G1 X72.312 Y83.879 E16.72812
G1 X72.846 Y83.386 E16.74179
G0 F3600 X73.236 Y83.586
G1 F1800 X73.815 Y83.186 E16.75503
G1 X74.436 Y82.854 E16.76827
G1 X75.09 Y82.594 E16.78151
G1 X75.77 Y82.41 E16.79476
G1 X76.466 Y82.304 E16.80801
G1 X77.047 Y82.277 E16.81895
G1 X136.953 Y82.277 E17.94581
G1 X137.656 Y82.317 E17.95906
G1 X138.35 Y82.436 E17.9723
G1 X139.025 Y82.634 E17.98553
G1 X139.674 Y82.906 E17.99877
G1 X140.288 Y83.251 E18.01202
G1 X140.859 Y83.662 E18.02525
G1 X141.38 Y84.136 E18.0385
G1 X141.844 Y84.666 E18.05175
G1 X142.244 Y85.245 E18.06499
G1 X142.576 Y85.866 E18.07824
G1 X142.836 Y86.52 E18.09148
G1 X143.02 Y87.2 E18.10473
G1 X143.126 Y87.896 E18.11797
G1 X143.153 Y88.477 E18.12891
G1 X143.153 Y113.42 E18.5981
G1 X143.113 Y114.123 E18.61135
G1 X142.994 Y114.817 E18.62459
G1 X142.796 Y115.492 E18.63782
G1 X142.524 Y116.141 E18.65106
G1 X142.179 Y116.755 E18.66431
G1 X141.899 Y117.158 E18.67354
G1 X140.281 Y119.299 E18.72402
G1 X139.929 Y119.725 E18.73442
G1 X137.519 Y122.384 E18.80192
G1 X137.201 Y122.709 E18.81047
G1 X135.956 Y123.895 E18.84282
G1 X135.42 Y124.351 E18.85605
G1 X134.942 Y124.678 E18.86695
G1 X132.235 Y126.353 E18.92683
G1 X131.878 Y126.558 E18.93457
G1 X130.451 Y127.315 E18.96496
G1 X129.549 Y127.706 E18.98345
G1 X126.526 Y128.738 E19.04354
G1 X126.135 Y128.857 E19.05123
G1 X122.867 Y129.737 E19.11489
G1 X122.5 Y129.824 E19.12198
G1 X119.05 Y130.531 E19.18823
G1 X118.683 Y130.595 E19.19524
G1 X115.151 Y131.1 E19.26235
G1 X114.794 Y131.14 E19.26911
G1 X111.178 Y131.445 E19.33737
G1 X110.83 Y131.465 E19.34393
G1 X107.172 Y131.567 E19.41276
G1 X106.828 Y131.567 E19.41923
G1 X103.17 Y131.466 E19.48807
G1 X102.82 Y131.446 E19.49466
G1 X99.206 Y131.141 E19.56288
G1 X98.849 Y131.101 E19.56964
G1 X95.317 Y130.596 E19.63676
G1 X94.952 Y130.532 E19.64373
G1 X91.502 Y129.826 E19.70997
G1 X91.226 Y129.763 E19.71529
G1 X89.58 Y129.347 E19.74723
G1 X89.294 Y129.267 E19.75282
G1 X86.097 Y128.294 E19.81568
G1 X85.795 Y128.194 E19.82166
G1 X84.348 Y127.671 E19.8506
G1 X83.428 Y127.251 E19.86963
G1 X80.588 Y125.662 E19.93084
G1 X80.232 Y125.446 E19.93867
G1 X78.936 Y124.602 E19.96777
G1 X78.368 Y124.185 E19.98102
G1 X77.931 Y123.788 E19.99213
G1 X75.451 Y121.304 E20.05815
G1 X75.046 Y120.856 E20.06951
G1 X72.758 Y118.068 E20.13736
G1 X72.483 Y117.707 E20.14589
G1 X71.979 Y116.992 E20.16235
G1 X71.607 Y116.395 E20.17558
G1 X71.305 Y115.759 E20.18882
G1 X71.077 Y115.093 E20.20207
G1 X70.926 Y114.405 E20.21532
G1 X70.847 Y113.42 E20.2339
G1 X70.847 Y88.477 E20.7031
G1 X70.887 Y87.774 E20.71634
G1 X71.006 Y87.08 E20.72959
G1 X71.204 Y86.405 E20.74282
G1 X71.476 Y85.756 E20.75605
G1 X71.821 Y85.142 E20.7693
G1 X72.232 Y84.571 E20.78254
G1 X72.706 Y84.05 E20.79579
G1 X73.236 Y83.586 E20.80904
G0 F3600 X73.625 Y83.794
G1 F1800 X74.197 Y83.425 E20.82184
G1 X74.809 Y83.126 E20.83465
G1 X75.451 Y82.901 E20.84745
G1 X76.116 Y82.752 E20.86027
G1 X77.047 Y82.677 E20.87784
G1 X136.953 Y82.677 E22.0047
G1 X137.633 Y82.717 E22.01752
G1 X138.303 Y82.836 E22.03032
G1 X138.955 Y83.033 E22.04313
G1 X139.579 Y83.305 E22.05593
G1 X140.167 Y83.649 E22.06875
G1 X140.711 Y84.059 E22.08156
G1 X141.202 Y84.53 E22.09436
G1 X141.636 Y85.055 E22.10717
G1 X142.005 Y85.627 E22.11998
G1 X142.304 Y86.239 E22.13279
G1 X142.529 Y86.881 E22.14559
G1 X142.678 Y87.546 E22.15841
G1 X142.753 Y88.477 E22.17597
G1 X142.753 Y113.42 E22.64517
G1 X142.713 Y114.1 E22.65798
G1 X142.594 Y114.77 E22.67078
G1 X142.397 Y115.422 E22.68359
G1 X142.125 Y116.046 E22.6964
G1 X141.781 Y116.634 E22.70921
G1 X141.58 Y116.917 E22.71574
G1 X139.962 Y119.058 E22.76622
G1 X139.632 Y119.456 E22.77595
G1 X137.222 Y122.115 E22.84345
G1 X136.926 Y122.42 E22.85145
G1 X135.681 Y123.606 E22.88379
G1 X135.161 Y124.045 E22.89659
G1 X134.732 Y124.338 E22.90636
G1 X132.025 Y126.013 E22.96624
G1 X131.691 Y126.205 E22.97349
G1 X130.264 Y126.962 E23.00388
G1 X129.42 Y127.327 E23.02117
G1 X126.397 Y128.359 E23.08126
G1 X126.031 Y128.471 E23.08846
G1 X122.763 Y129.351 E23.15212
G1 X122.419 Y129.432 E23.15877
G1 X118.969 Y130.139 E23.22501
G1 X118.626 Y130.199 E23.23156
G1 X115.094 Y130.704 E23.29868
G1 X114.76 Y130.741 E23.305
G1 X111.144 Y131.046 E23.37326
G1 X110.819 Y131.065 E23.37938
G1 X107.161 Y131.167 E23.44822
G1 X106.839 Y131.167 E23.45428
G1 X103.181 Y131.066 E23.52311
G1 X102.853 Y131.047 E23.52929
G1 X99.239 Y130.742 E23.59752
G1 X98.906 Y130.705 E23.60382
G1 X95.374 Y130.2 E23.67093
G1 X95.032 Y130.14 E23.67746
G1 X91.582 Y129.434 E23.74371
G1 X91.324 Y129.375 E23.74868
G1 X89.678 Y128.959 E23.78062
G1 X89.41 Y128.885 E23.78585
G1 X86.213 Y127.912 E23.84871
G1 X85.93 Y127.818 E23.85432
G1 X84.483 Y127.295 E23.88326
G1 X83.623 Y126.902 E23.90105
G1 X80.783 Y125.313 E23.96226
