;FLAVOR:RepRap
;TIME:7429
;Filament used: 1.52775m
;Layer height: 0.1
;Generated with Cura_SteamEngine 2.4.0
M190 S60
M104 S205
M109 S205
G28 ;Home
G1 Z15.0 F6000 ;Move the platform down 15mm
;Prime the extruder
G92 E0
G1 F200 E3
G92 E0
;LAYER_COUNT:35
;LAYER:0
M107
G1 F1500 E-6.5
G0 F3600 X71.67 Y76.826 Z0.3
;TYPE:SKIRT
G1 F1500 E0
G1 F1800 X72.269 Y76.311 E0.01486
G1 X72.917 Y75.86 E0.02971
G1 X73.608 Y75.476 E0.04458
G1 X74.333 Y75.164 E0.05943
G1 X75.086 Y74.927 E0.07428
G1 X75.86 Y74.768 E0.08914
G1 X76.645 Y74.687 E0.10398
G1 X77.047 Y74.677 E0.11155
G1 X136.953 Y74.677 E1.23841
G1 X137.742 Y74.717 E1.25327
G1 X138.522 Y74.836 E1.26812
G1 X139.287 Y75.034 E1.28298
G1 X140.027 Y75.308 E1.29782
G1 X140.736 Y75.656 E1.31268
G1 X141.407 Y76.074 E1.32755
G1 X142.031 Y76.557 E1.3424
G1 X142.604 Y77.1 E1.35724
G1 X143.119 Y77.699 E1.3721
G1 X143.57 Y78.347 E1.38695
G1 X143.954 Y79.038 E1.40183
G1 X144.266 Y79.763 E1.41667
G1 X144.503 Y80.516 E1.43152
G1 X144.662 Y81.29 E1.44638
G1 X144.743 Y82.075 E1.46123
G1 X144.753 Y82.477 E1.46879
G1 X144.753 Y119.42 E2.16371
G1 X144.713 Y120.209 E2.17857
G1 X144.594 Y120.989 E2.19341
G1 X144.396 Y121.754 E2.20828
G1 X144.122 Y122.494 E2.22312
G1 X143.774 Y123.203 E2.23798
G1 X143.176 Y124.123 E2.25862
G1 X141.558 Y126.264 E2.3091
G1 X141.114 Y126.799 E2.32218
G1 X138.704 Y129.458 E2.38968
G1 X138.305 Y129.868 E2.40044
G1 X137.06 Y131.054 E2.43279
G1 X136.461 Y131.569 E2.44765
G1 X135.784 Y132.039 E2.46315
G1 X133.077 Y133.714 E2.52303
G1 X132.628 Y133.971 E2.53276
G1 X131.201 Y134.728 E2.56315
G1 X130.486 Y135.063 E2.578
G1 X130.066 Y135.22 E2.58643
G1 X127.043 Y136.252 E2.64652
G1 X126.551 Y136.402 E2.6562
G1 X123.283 Y137.282 E2.71986
G1 X122.821 Y137.391 E2.72879
G1 X119.371 Y138.098 E2.79503
G1 X118.909 Y138.178 E2.80385
G1 X115.377 Y138.683 E2.87097
G1 X114.929 Y138.734 E2.87945
G1 X111.313 Y139.039 E2.94771
G1 X110.874 Y139.064 E2.95598
G1 X107.216 Y139.166 E3.02482
G1 X106.784 Y139.166 E3.03294
G1 X103.126 Y139.065 E3.10178
G1 X102.685 Y139.04 E3.11009
G1 X99.071 Y138.735 E3.17831
G1 X98.623 Y138.684 E3.18679
G1 X95.091 Y138.179 E3.25391
G1 X94.631 Y138.1 E3.26269
G1 X91.181 Y137.394 E3.32893
G1 X90.834 Y137.314 E3.33562
G1 X89.188 Y136.898 E3.36756
G1 X88.828 Y136.798 E3.37459
G1 X85.631 Y135.825 E3.43745
G1 X85.251 Y135.699 E3.44498
G1 X83.804 Y135.176 E3.47392
G1 X83.076 Y134.87 E3.48878
G1 X82.646 Y134.647 E3.49789
G1 X79.806 Y133.058 E3.5591
G1 X79.358 Y132.787 E3.56895
G1 X78.062 Y131.943 E3.59805
G1 X77.423 Y131.479 E3.6129
G1 X76.799 Y130.918 E3.62868
G1 X74.319 Y128.434 E3.69471
G1 X73.809 Y127.871 E3.709
G1 X71.521 Y125.083 E3.77684
G1 X71.176 Y124.629 E3.78757
G1 X70.672 Y123.914 E3.80402
G1 X70.25 Y123.246 E3.81889
G1 X69.898 Y122.539 E3.83374
G1 X69.619 Y121.801 E3.84858
G1 X69.417 Y121.037 E3.86345
G1 X69.292 Y120.258 E3.87829
G1 X69.247 Y119.42 E3.89408
G1 X69.247 Y82.477 E4.58899
G1 X69.287 Y81.688 E4.60386
G1 X69.406 Y80.908 E4.6187
G1 X69.604 Y80.143 E4.63356
G1 X69.878 Y79.403 E4.6484
G1 X70.226 Y78.694 E4.66326
G1 X70.644 Y78.023 E4.67813
G1 X71.127 Y77.399 E4.69298
G1 X71.67 Y76.826 E4.70782
G0 F3600 X72.063 Y77.007
G1 F1800 X72.658 Y76.519 E4.7223
G1 X73.3 Y76.096 E4.73676
G1 X73.983 Y75.741 E4.75124
G1 X74.698 Y75.46 E4.76569
G1 X75.44 Y75.254 E4.78018
G1 X76.198 Y75.126 E4.79464
G1 X77.047 Y75.077 E4.81063
G1 X136.953 Y75.077 E5.9375
G1 X137.721 Y75.117 E5.95197
G1 X138.481 Y75.236 E5.96644
G1 X139.224 Y75.434 E5.9809
G1 X139.943 Y75.708 E5.99537
G1 X140.629 Y76.055 E6.00983
G1 X141.276 Y76.471 E6.0243
G1 X141.876 Y76.952 E6.03877
G1 X142.423 Y77.493 E6.05324
G1 X142.911 Y78.088 E6.06772
G1 X143.334 Y78.73 E6.08218
G1 X143.689 Y79.413 E6.09666
G1 X143.97 Y80.128 E6.11111
G1 X144.176 Y80.87 E6.12559
G1 X144.304 Y81.628 E6.14005
G1 X144.353 Y82.477 E6.15605
G1 X144.353 Y119.42 E6.85097
G1 X144.313 Y120.188 E6.86544
G1 X144.194 Y120.948 E6.87991
G1 X143.996 Y121.691 E6.89437
G1 X143.722 Y122.41 E6.90884
G1 X143.375 Y123.096 E6.9233
G1 X142.857 Y123.882 E6.94101
G1 X141.239 Y126.023 E6.99149
G1 X140.818 Y126.531 E7.0039
G1 X138.408 Y129.19 E7.07141
G1 X138.029 Y129.578 E7.08161
G1 X136.784 Y130.764 E7.11395
G1 X136.2 Y131.265 E7.12843
G1 X135.574 Y131.699 E7.14276
G1 X132.867 Y133.374 E7.20264
G1 X132.441 Y133.618 E7.21187
G1 X131.014 Y134.375 E7.24226
G1 X130.317 Y134.7 E7.25672
G1 X129.937 Y134.841 E7.26435
G1 X126.914 Y135.873 E7.32443
G1 X126.447 Y136.015 E7.33361
G1 X123.179 Y136.895 E7.39728
G1 X122.741 Y136.999 E7.40575
G1 X119.291 Y137.706 E7.47199
G1 X118.852 Y137.783 E7.48037
G1 X115.32 Y138.288 E7.54749
G1 X114.895 Y138.336 E7.55553
G1 X111.279 Y138.641 E7.62379
G1 X110.863 Y138.664 E7.63163
G1 X107.205 Y138.766 E7.70047
G1 X106.795 Y138.766 E7.70818
G1 X103.137 Y138.665 E7.77702
G1 X102.719 Y138.642 E7.78489
G1 X99.105 Y138.337 E7.85311
G1 X98.68 Y138.289 E7.86116
G1 X95.148 Y137.784 E7.92827
G1 X94.711 Y137.708 E7.93662
G1 X91.261 Y137.002 E8.00286
G1 X90.932 Y136.926 E8.00921
G1 X89.286 Y136.51 E8.04115
G1 X88.944 Y136.415 E8.04782
G1 X85.747 Y135.442 E8.11068
G1 X85.387 Y135.322 E8.11782
G1 X83.94 Y134.799 E8.14676
G1 X83.231 Y134.501 E8.16123
G1 X82.842 Y134.298 E8.16948
G1 X80.002 Y132.709 E8.2307
G1 X79.577 Y132.452 E8.24004
G1 X78.281 Y131.608 E8.26913
G1 X77.659 Y131.155 E8.28361
G1 X77.082 Y130.635 E8.29822
G1 X74.602 Y128.151 E8.36425
G1 X74.119 Y127.617 E8.37779
G1 X71.831 Y124.829 E8.44563
G1 X71.503 Y124.398 E8.45582
G1 X70.999 Y123.683 E8.47228
G1 X70.589 Y123.033 E8.48673
G1 X70.249 Y122.343 E8.5012
G1 X69.982 Y121.621 E8.51568
G1 X69.792 Y120.876 E8.53014
G1 X69.68 Y120.115 E8.54461
G1 X69.647 Y119.42 E8.5577
G1 X69.647 Y82.477 E9.25262
G1 X69.687 Y81.709 E9.26709
G1 X69.806 Y80.949 E9.28156
G1 X70.004 Y80.206 E9.29602
G1 X70.278 Y79.487 E9.31049
G1 X70.625 Y78.801 E9.32495
G1 X71.041 Y78.154 E9.33942
G1 X71.522 Y77.554 E9.35389
G1 X72.063 Y77.007 E9.36836
G0 F3600 X72.455 Y77.193
G1 F1800 X73.045 Y76.734 E9.38242
G1 X73.681 Y76.339 E9.3965
G1 X74.355 Y76.015 E9.41057
G1 X75.06 Y75.765 E9.42464
G1 X75.788 Y75.591 E9.43872
G1 X76.53 Y75.496 E9.45279
G1 X77.047 Y75.477 E9.46253
G1 X136.953 Y75.477 E10.58939
G1 X137.7 Y75.517 E10.60346
G1 X138.438 Y75.636 E10.61752
G1 X139.16 Y75.834 E10.63161
G1 X139.856 Y76.107 E10.64567
G1 X140.519 Y76.454 E10.65975
G1 X141.142 Y76.869 E10.67383
G1 X141.716 Y77.348 E10.68789
G1 X142.237 Y77.885 E10.70196
G1 X142.696 Y78.475 E10.71603
G1 X143.091 Y79.111 E10.73011
G1 X143.415 Y79.785 E10.74418
G1 X143.665 Y80.49 E10.75825
G1 X143.839 Y81.218 E10.77233
G1 X143.934 Y81.96 E10.7864
G1 X143.953 Y82.477 E10.79613
G1 X143.953 Y119.42 E11.49105
G1 X143.913 Y120.167 E11.50512
G1 X143.794 Y120.905 E11.51918
G1 X143.596 Y121.627 E11.53326
G1 X143.323 Y122.323 E11.54733
G1 X142.976 Y122.986 E11.5614
G1 X142.538 Y123.64 E11.57621
G1 X140.92 Y125.781 E11.62669
G1 X140.522 Y126.262 E11.63843
G1 X138.112 Y128.921 E11.70594
G1 X137.753 Y129.288 E11.71559
G1 X136.508 Y130.474 E11.74794
G1 X135.94 Y130.961 E11.76201
G1 X135.363 Y131.359 E11.7752
G1 X132.656 Y133.034 E11.83508
G1 X132.253 Y133.265 E11.84382
G1 X130.826 Y134.022 E11.8742
G1 X129.808 Y134.463 E11.89507
G1 X126.785 Y135.495 E11.95516
G1 X126.343 Y135.629 E11.96384
G1 X123.075 Y136.509 E12.02751
G1 X122.66 Y136.607 E12.03553
G1 X119.21 Y137.314 E12.10177
G1 X118.796 Y137.387 E12.10968
G1 X115.264 Y137.892 E12.1768
G1 X114.861 Y137.937 E12.18442
G1 X111.245 Y138.242 E12.25268
G1 X110.852 Y138.264 E12.26009
G1 X107.194 Y138.366 E12.32892
G1 X106.806 Y138.366 E12.33622
G1 X103.148 Y138.265 E12.40506
G1 X102.752 Y138.243 E12.41252
G1 X99.138 Y137.938 E12.48074
G1 X98.736 Y137.893 E12.48835
G1 X95.204 Y137.388 E12.55546
G1 X94.792 Y137.316 E12.56333
G1 X91.342 Y136.61 E12.62957
G1 X91.03 Y136.539 E12.63559
G1 X89.384 Y136.123 E12.66753
G1 X89.061 Y136.033 E12.67383
G1 X85.864 Y135.06 E12.7367
G1 X85.523 Y134.946 E12.74346
G1 X84.076 Y134.423 E12.7724
G1 X83.387 Y134.132 E12.78647
G1 X83.037 Y133.949 E12.7939
G1 X80.197 Y132.36 E12.85512
G1 X79.795 Y132.117 E12.86395
G1 X78.499 Y131.273 E12.89304
G1 X77.895 Y130.832 E12.90711
G1 X77.365 Y130.353 E12.92055
G1 X74.885 Y127.869 E12.98658
G1 X74.428 Y127.364 E12.99939
G1 X72.14 Y124.576 E13.06723
G1 X71.83 Y124.168 E13.07687
G1 X71.326 Y123.453 E13.09332
G1 X70.928 Y122.819 E13.1074
G1 X70.6 Y122.147 E13.12147
G1 X70.346 Y121.443 E13.13555
G1 X70.168 Y120.717 E13.14961
G1 X70.069 Y119.975 E13.16369
G1 X70.047 Y119.42 E13.17414
G1 X70.047 Y82.477 E13.86906
G1 X70.087 Y81.73 E13.88313
G1 X70.206 Y80.992 E13.89719
G1 X70.404 Y80.27 E13.91127
G1 X70.677 Y79.574 E13.92534
G1 X71.024 Y78.911 E13.93941
G1 X71.439 Y78.288 E13.95349
G1 X71.918 Y77.714 E13.96756
G1 X72.455 Y77.193 E13.98163
G0 F3600 X72.846 Y77.386
G1 F1800 X73.431 Y76.956 E13.99529
G1 X74.06 Y76.592 E14.00896
G1 X74.725 Y76.299 E14.02263
G1 X75.418 Y76.081 E14.03629
G1 X76.13 Y75.941 E14.04994
G1 X77.047 Y75.877 E14.06723
G1 X136.953 Y75.877 E15.1941
G1 X137.678 Y75.917 E15.20776
G1 X138.395 Y76.036 E15.22143
G1 X139.094 Y76.234 E15.2351
G1 X139.767 Y76.507 E15.24876
G1 X140.406 Y76.852 E15.26242
G1 X141.003 Y77.266 E15.27608
G1 X141.551 Y77.742 E15.28974
G1 X142.044 Y78.276 E15.30341
G1 X142.474 Y78.861 E15.31706
G1 X142.838 Y79.49 E15.33073
G1 X143.131 Y80.155 E15.3444
G1 X143.349 Y80.848 E15.35807
G1 X143.489 Y81.56 E15.37172
G1 X143.553 Y82.477 E15.38901
G1 X143.553 Y119.42 E16.08393
G1 X143.513 Y120.145 E16.09759
G1 X143.394 Y120.862 E16.11126
G1 X143.196 Y121.561 E16.12492
G1 X142.923 Y122.234 E16.13859
G1 X142.578 Y122.873 E16.15225
G1 X142.219 Y123.399 E16.16423
G1 X140.601 Y125.54 E16.21471
G1 X140.225 Y125.993 E16.22578
G1 X137.815 Y128.652 E16.29328
G1 X137.477 Y128.999 E16.3024
G1 X136.232 Y130.185 E16.33474
G1 X135.68 Y130.656 E16.34839
G1 X135.153 Y131.018 E16.36042
G1 X132.446 Y132.693 E16.4203
G1 X132.066 Y132.911 E16.42854
G1 X130.639 Y133.668 E16.45892
G1 X129.678 Y134.084 E16.47862
G1 X126.655 Y135.116 E16.53871
G1 X126.239 Y135.243 E16.54689
G1 X122.971 Y136.123 E16.61055
G1 X122.58 Y136.216 E16.61811
G1 X119.13 Y136.923 E16.68436
G1 X118.739 Y136.991 E16.69182
G1 X115.207 Y137.496 E16.75894
G1 X114.828 Y137.539 E16.76611
G1 X111.212 Y137.844 E16.83437
G1 X110.841 Y137.864 E16.84136
G1 X107.183 Y137.966 E16.9102
G1 X106.817 Y137.966 E16.91708
G1 X103.159 Y137.865 E16.98592
G1 X102.786 Y137.845 E16.99294
G1 X99.172 Y137.54 E17.06117
G1 X98.793 Y137.497 E17.06834
G1 X95.261 Y136.992 E17.13546
G1 X94.872 Y136.924 E17.14288
G1 X91.422 Y136.218 E17.20913
G1 X91.128 Y136.151 E17.2148
G1 X89.482 Y135.735 E17.24673
G1 X89.177 Y135.65 E17.25269
G1 X85.98 Y134.677 E17.31555
G1 X85.659 Y134.57 E17.32191
G1 X84.212 Y134.047 E17.35086
G1 X83.232 Y133.6 E17.37112
G1 X80.392 Y132.011 E17.43233
G1 X80.013 Y131.782 E17.44066
G1 X78.717 Y130.938 E17.46976
G1 X78.131 Y130.508 E17.48343
G1 X77.648 Y130.07 E17.49569
G1 X75.168 Y127.586 E17.56172
G1 X74.737 Y127.11 E17.5738
G1 X72.449 Y124.322 E17.64164
G1 X72.157 Y123.938 E17.65072
G1 X71.653 Y123.223 E17.66717
G1 X71.267 Y122.607 E17.68085
G1 X70.952 Y121.952 E17.69452
G1 X70.711 Y121.267 E17.70818
G1 X70.546 Y120.56 E17.72183
G1 X70.46 Y119.839 E17.73549
G1 X70.447 Y119.42 E17.74338
G1 X70.447 Y82.477 E18.4383
G1 X70.487 Y81.752 E18.45195
G1 X70.606 Y81.035 E18.46563
G1 X70.804 Y80.336 E18.47929
G1 X71.077 Y79.663 E18.49295
G1 X71.422 Y79.024 E18.50661
G1 X71.836 Y78.427 E18.52028
G1 X72.312 Y77.879 E18.53393
G1 X72.846 Y77.386 E18.5476
G0 F3600 X73.236 Y77.586
G1 F1800 X73.815 Y77.186 E18.56084
G1 X74.436 Y76.854 E18.57409
G1 X75.09 Y76.594 E18.58733
G1 X75.77 Y76.41 E18.60058
G1 X76.466 Y76.304 E18.61382
G1 X77.047 Y76.277 E18.62476
G1 X136.953 Y76.277 E19.75163
G1 X137.656 Y76.317 E19.76487
G1 X138.35 Y76.436 E19.77812
G1 X139.025 Y76.634 E19.79135
G1 X139.674 Y76.906 E19.80459
G1 X140.288 Y77.251 E19.81783
G1 X140.859 Y77.662 E19.83107
G1 X141.38 Y78.136 E19.84432
G1 X141.844 Y78.666 E19.85757
G1 X142.244 Y79.245 E19.8708
G1 X142.576 Y79.866 E19.88405
G1 X142.836 Y80.52 E19.89729
G1 X143.02 Y81.2 E19.91054
G1 X143.126 Y81.896 E19.92378
G1 X143.153 Y82.477 E19.93472
G1 X143.153 Y119.42 E20.62964
G1 X143.113 Y120.123 E20.64289
G1 X142.994 Y120.817 E20.65613
G1 X142.796 Y121.492 E20.66936
G1 X142.524 Y122.141 E20.6826
G1 X142.179 Y122.755 E20.69585
G1 X141.899 Y123.158 E20.70508
G1 X140.281 Y125.299 E20.75556
G1 X139.929 Y125.725 E20.76596
G1 X137.519 Y128.384 E20.83346
G1 X137.201 Y128.709 E20.84201
G1 X135.956 Y129.895 E20.87436
G1 X135.42 Y130.351 E20.8876
G1 X134.942 Y130.678 E20.89849
G1 X132.235 Y132.353 E20.95837
G1 X131.878 Y132.558 E20.96611
G1 X130.451 Y133.315 E20.9965
G1 X129.549 Y133.706 E21.01499
G1 X126.526 Y134.738 E21.07508
G1 X126.135 Y134.857 E21.08277
G1 X122.867 Y135.737 E21.14643
G1 X122.5 Y135.824 E21.15352
G1 X119.05 Y136.531 E21.21977
G1 X118.683 Y136.595 E21.22678
G1 X115.151 Y137.1 E21.29389
G1 X114.794 Y137.14 E21.30065
G1 X111.178 Y137.445 E21.36891
G1 X110.83 Y137.465 E21.37547
G1 X107.172 Y137.567 E21.4443
G1 X106.828 Y137.567 E21.45077
G1 X103.17 Y137.466 E21.51961
G1 X102.82 Y137.446 E21.5262
G1 X99.206 Y137.141 E21.59442
G1 X98.849 Y137.101 E21.60118
G1 X95.317 Y136.596 E21.6683
G1 X94.952 Y136.532 E21.67527
G1 X91.502 Y135.826 E21.74151
G1 X91.226 Y135.763 E21.74683
G1 X89.58 Y135.347 E21.77877
G1 X89.294 Y135.267 E21.78436
G1 X86.097 Y134.294 E21.84722
G1 X85.795 Y134.194 E21.8532
G1 X84.348 Y133.671 E21.88214
G1 X83.428 Y133.251 E21.90117
G1 X80.588 Y131.662 E21.96238
G1 X80.232 Y131.446 E21.97021
G1 X78.936 Y130.602 E21.99931
G1 X78.368 Y130.185 E22.01256
G1 X77.931 Y129.788 E22.02367
G1 X75.451 Y127.304 E22.08969
G1 X75.046 Y126.856 E22.10105
G1 X72.758 Y124.068 E22.1689
G1 X72.483 Y123.707 E22.17743
G1 X71.979 Y122.992 E22.19389
G1 X71.607 Y122.395 E22.20712
G1 X71.305 Y121.759 E22.22036
G1 X71.077 Y121.093 E22.23361
G1 X70.926 Y120.405 E22.24686
G1 X70.847 Y119.42 E22.26544
G1 X70.847 Y82.477 E22.96036
G1 X70.887 Y81.774 E22.97361
G1 X71.006 Y81.08 E22.98685
G1 X71.204 Y80.405 E23.00008
G1 X71.476 Y79.756 E23.01332
G1 X71.821 Y79.142 E23.02657
G1 X72.232 Y78.571 E23.0398
G1 X72.706 Y78.05 E23.05305
G1 X73.236 Y77.586 E23.0663
G0 F3600 X73.625 Y77.794
G1 F1800 X74.197 Y77.425 E23.07911
G1 X74.809 Y77.126 E23.09192
G1 X75.451 Y76.901 E23.10472
G1 X76.116 Y76.752 E23.11754
G1 X77.047 Y76.677 E23.1351
G1 X136.953 Y76.677 E24.26197
G1 X137.633 Y76.717 E24.27478
G1 X138.303 Y76.836 E24.28758
G1 X138.955 Y77.033 E24.3004
G1 X139.579 Y77.305 E24.3132
G1 X140.167 Y77.649 E24.32601
G1 X140.711 Y78.059 E24.33883
G1 X141.202 Y78.53 E24.35163
G1 X141.636 Y79.055 E24.36444
G1 X142.005 Y79.627 E24.37724
G1 X142.304 Y80.239 E24.39006
G1 X142.529 Y80.881 E24.40285
G1 X142.678 Y81.546 E24.41567
G1 X142.753 Y82.477 E24.43324
G1 X142.753 Y119.42 E25.12816
G1 X142.713 Y120.1 E25.14097
G1 X142.594 Y120.77 E25.15377
G1 X142.397 Y121.422 E25.16659
G1 X142.125 Y122.046 E25.17939
G1 X141.781 Y122.634 E25.1922
G1 X141.58 Y122.917 E25.19873
G1 X139.962 Y125.058 E25.24921
G1 X139.632 Y125.456 E25.25894
G1 X137.222 Y128.115 E25.32644
G1 X136.926 Y128.42 E25.33444
G1 X135.681 Y129.606 E25.36678
G1 X135.161 Y130.045 E25.37958
G1 X134.732 Y130.338 E25.38936
G1 X132.025 Y132.013 E25.44924
G1 X131.691 Y132.205 E25.45648
G1 X130.264 Y132.962 E25.48687
G1 X129.42 Y133.327 E25.50417
G1 X126.397 Y134.359 E25.56425
G1 X126.031 Y134.471 E25.57145
G1 X122.763 Y135.351 E25.63512
G1 X122.419 Y135.432 E25.64176
G1 X118.969 Y136.139 E25.70801
G1 X118.626 Y136.199 E25.71456
G1 X115.094 Y136.704 E25.78167
G1 X114.76 Y136.741 E25.78799
G1 X111.144 Y137.046 E25.85625
G1 X110.819 Y137.065 E25.86238
G1 X107.161 Y137.167 E25.93121
G1 X106.839 Y137.167 E25.93727
G1 X103.181 Y137.066 E26.00611
G1 X102.853 Y137.047 E26.01229
G1 X99.239 Y136.742 E26.08051
G1 X98.906 Y136.705 E26.08681
G1 X95.374 Y136.2 E26.15393
G1 X95.032 Y136.14 E26.16046
G1 X91.582 Y135.434 E26.2267
G1 X91.324 Y135.375 E26.23168
G1 X89.678 Y134.959 E26.26361
G1 X89.41 Y134.885 E26.26884
G1 X86.213 Y133.912 E26.3317
G1 X85.93 Y133.818 E26.33731
G1 X84.483 Y133.295 E26.36626
G1 X83.623 Y132.902 E26.38404
