;FLAVOR:RepRap
;TIME:6412
;Filament used: 1.29631m
;Layer height: 0.1
;Generated with Cura_SteamEngine 2.4.0
M190 S60
M104 S205
M109 S205
G28 ;Home
G1 Z15.0 F6000 ;Move the platform down 15mm
;Prime the extruder
G92 E0
G1 F200 E3
G92 E0
;LAYER_COUNT:55
;LAYER:0
M107
G1 F1500 E-6.5
G0 F3600 X76.476 Y79.397 Z0.3
;TYPE:SKIRT
G1 F1500 E0
G1 F1800 X77.065 Y78.87 E0.01487
G1 X77.863 Y78.304 E0.03327
G1 X80.621 Y76.597 E0.09428
G1 X81.068 Y76.34 E0.10398
G1 X82.522 Y75.568 E0.13495
G1 X83.238 Y75.233 E0.14982
G1 X83.666 Y75.073 E0.15841
G1 X86.776 Y74.014 E0.22021
G1 X87.264 Y73.866 E0.2298
G1 X90.596 Y72.97 E0.29471
G1 X90.951 Y72.883 E0.30158
G1 X92.665 Y72.507 E0.33459
G1 X93.015 Y72.439 E0.3413
G1 X96.552 Y71.831 E0.40881
G1 X96.998 Y71.767 E0.41728
G1 X100.613 Y71.359 E0.48571
G1 X101.052 Y71.322 E0.494
G1 X104.734 Y71.116 E0.56337
G1 X105.17 Y71.104 E0.57157
G1 X108.83 Y71.104 E0.64042
G1 X109.266 Y71.116 E0.64863
G1 X112.948 Y71.322 E0.71799
G1 X113.385 Y71.359 E0.72624
G1 X117 Y71.766 E0.79467
G1 X117.453 Y71.83 E0.80328
G1 X120.99 Y72.44 E0.87079
G1 X121.328 Y72.507 E0.87728
G1 X123.041 Y72.881 E0.91026
G1 X123.403 Y72.969 E0.91727
G1 X126.737 Y73.866 E0.98221
G1 X127.225 Y74.014 E0.9918
G1 X130.332 Y75.072 E1.05354
G1 X131.066 Y75.364 E1.0684
G1 X131.63 Y75.651 E1.08031
G1 X134.515 Y77.267 E1.14251
G1 X134.957 Y77.534 E1.15222
G1 X136.282 Y78.396 E1.18196
G1 X136.921 Y78.859 E1.1968
G1 X137.518 Y79.394 E1.21188
G1 X139.842 Y81.697 E1.27342
G1 X140.365 Y82.269 E1.288
G1 X142.88 Y85.313 E1.36228
G1 X143.35 Y85.944 E1.37708
G1 X145.379 Y88.977 E1.44572
G1 X145.776 Y89.639 E1.46024
G1 X147.5 Y92.866 E1.52906
G1 X147.826 Y93.556 E1.54342
G1 X149.219 Y96.919 E1.61189
G1 X149.477 Y97.64 E1.62629
G1 X150.536 Y101.132 E1.69493
G1 X150.722 Y101.872 E1.70929
G1 X151.437 Y105.461 E1.77812
G1 X151.549 Y106.216 E1.79248
G1 X151.898 Y109.738 E1.85906
G1 X151.936 Y110.475 E1.87294
G1 X151.951 Y114.163 E1.94231
G1 X151.913 Y114.96 E1.95732
G1 X151.549 Y118.653 E2.02712
G1 X151.438 Y119.406 E2.04144
G1 X150.731 Y122.969 E2.10977
G1 X150.545 Y123.712 E2.12418
G1 X149.482 Y127.221 E2.19315
G1 X149.295 Y127.767 E2.204
G1 X148.634 Y129.481 E2.23856
G1 X148.406 Y130.01 E2.24939
G1 X146.85 Y133.298 E2.31782
G1 X146.491 Y133.972 E2.33218
G1 X144.614 Y137.104 E2.40087
G1 X144.307 Y137.576 E2.41146
G1 X143.64 Y138.526 E2.43329
G1 X143.154 Y139.149 E2.44816
G1 X142.607 Y139.719 E2.46302
G1 X142.006 Y140.231 E2.47787
G1 X141.356 Y140.679 E2.49272
G1 X140.664 Y141.06 E2.50758
G1 X140.292 Y141.229 E2.51526
G1 X137.741 Y142.307 E2.56736
G1 X136.999 Y142.577 E2.58221
G1 X136.234 Y142.771 E2.59706
G1 X135.452 Y142.886 E2.61193
G1 X134.664 Y142.922 E2.62676
G1 X133.875 Y142.878 E2.64163
G1 X133.095 Y142.754 E2.65648
G1 X132.332 Y142.552 E2.67133
G1 X131.593 Y142.274 E2.68618
G1 X130.885 Y141.923 E2.70105
G1 X130.217 Y141.502 E2.7159
G1 X129.595 Y141.015 E2.73076
G1 X129.026 Y140.468 E2.74561
G1 X128.514 Y139.867 E2.76046
G1 X128.066 Y139.216 E2.77532
G1 X127.686 Y138.524 E2.79017
G1 X127.378 Y137.797 E2.80503
G1 X127.145 Y137.042 E2.81989
G1 X126.99 Y136.268 E2.83474
G1 X126.905 Y135.122 E2.85635
G1 X126.905 Y106.049 E3.40323
G1 X126.444 Y106.111 E3.41198
G1 X125.799 Y106.138 E3.42413
G1 X88.201 Y106.138 E4.13137
G1 X87.412 Y106.098 E4.14623
G1 X87.095 Y106.05 E4.15226
G1 X87.095 Y135.122 E4.69912
G1 X87.055 Y135.911 E4.71398
G1 X86.936 Y136.691 E4.72882
G1 X86.738 Y137.456 E4.74368
G1 X86.464 Y138.196 E4.75853
G1 X86.116 Y138.905 E4.77338
G1 X85.698 Y139.576 E4.78826
G1 X85.215 Y140.2 E4.8031
G1 X84.672 Y140.773 E4.81795
G1 X84.073 Y141.288 E4.83281
G1 X83.425 Y141.739 E4.84766
G1 X82.734 Y142.123 E4.86253
G1 X82.009 Y142.435 E4.87738
G1 X81.256 Y142.672 E4.89222
G1 X80.482 Y142.831 E4.90709
G1 X79.697 Y142.912 E4.92193
G1 X78.907 Y142.912 E4.93679
G1 X78.121 Y142.833 E4.95165
G1 X77.348 Y142.675 E4.96649
G1 X76.26 Y142.307 E4.9881
G1 X73.708 Y141.229 E5.04021
G1 X72.997 Y140.886 E5.05506
G1 X72.324 Y140.472 E5.06992
G1 X71.697 Y139.992 E5.08478
G1 X71.122 Y139.451 E5.09963
G1 X70.604 Y138.855 E5.11448
G1 X70.233 Y138.341 E5.1264
G1 X68.588 Y135.849 E5.18257
G1 X68.217 Y135.225 E5.19623
G1 X66.498 Y132.005 E5.26489
G1 X66.172 Y131.316 E5.27923
G1 X64.776 Y127.944 E5.34788
G1 X64.517 Y127.219 E5.36236
G1 X63.455 Y123.71 E5.43132
G1 X63.271 Y122.971 E5.44565
G1 X62.563 Y119.408 E5.51398
G1 X62.451 Y118.653 E5.52834
G1 X62.087 Y114.961 E5.59812
G1 X62.049 Y114.164 E5.61313
G1 X62.064 Y110.476 E5.68251
G1 X62.102 Y109.739 E5.69639
G1 X62.451 Y106.217 E5.76296
G1 X62.563 Y105.465 E5.77726
G1 X63.275 Y101.885 E5.84592
G1 X63.461 Y101.142 E5.86033
G1 X64.52 Y97.65 E5.92897
G1 X64.705 Y97.111 E5.93969
G1 X65.365 Y95.397 E5.97424
G1 X65.594 Y94.863 E5.98517
G1 X67.15 Y91.576 E6.05358
G1 X67.509 Y90.903 E6.06793
G1 X69.386 Y87.771 E6.13661
G1 X69.805 Y87.143 E6.15081
G1 X71.88 Y84.337 E6.21646
G1 X72.239 Y83.888 E6.22727
G1 X73.734 Y82.15 E6.2704
G1 X74.155 Y81.698 E6.28202
G1 X76.476 Y79.397 E6.34349
G0 F3600 X76.758 Y79.681
G1 F1800 X77.332 Y79.168 E6.35797
G1 X78.074 Y78.644 E6.37506
G1 X80.832 Y76.937 E6.43607
G1 X81.256 Y76.693 E6.44528
G1 X82.71 Y75.921 E6.47624
G1 X83.407 Y75.596 E6.49071
G1 X83.795 Y75.452 E6.49849
G1 X86.905 Y74.393 E6.56029
G1 X87.368 Y74.252 E6.5694
G1 X90.7 Y73.356 E6.6343
G1 X91.036 Y73.274 E6.64081
G1 X92.75 Y72.898 E6.67381
G1 X93.082 Y72.833 E6.68018
G1 X96.619 Y72.225 E6.74769
G1 X97.043 Y72.165 E6.75574
G1 X100.658 Y71.757 E6.82417
G1 X101.075 Y71.722 E6.83205
G1 X104.757 Y71.516 E6.90141
G1 X105.17 Y71.504 E6.90919
G1 X108.83 Y71.504 E6.97803
G1 X109.243 Y71.516 E6.98581
G1 X112.925 Y71.722 E7.05517
G1 X113.34 Y71.756 E7.06301
G1 X116.955 Y72.163 E7.13144
G1 X117.385 Y72.225 E7.13961
G1 X120.922 Y72.835 E7.20712
G1 X121.242 Y72.897 E7.21325
G1 X122.955 Y73.271 E7.24624
G1 X123.3 Y73.355 E7.25292
G1 X126.634 Y74.252 E7.31786
G1 X127.096 Y74.393 E7.32695
G1 X130.203 Y75.451 E7.38869
G1 X130.918 Y75.736 E7.40317
G1 X131.434 Y76 E7.41407
G1 X134.319 Y77.616 E7.47627
G1 X134.738 Y77.869 E7.48548
G1 X136.063 Y78.731 E7.51521
G1 X136.685 Y79.183 E7.52967
G1 X137.237 Y79.678 E7.54362
G1 X139.561 Y81.981 E7.60517
G1 X140.057 Y82.524 E7.619
G1 X142.572 Y85.568 E7.69327
G1 X143.018 Y86.166 E7.70731
G1 X145.047 Y89.199 E7.77595
G1 X145.423 Y89.827 E7.78972
G1 X147.147 Y93.054 E7.85854
G1 X147.457 Y93.709 E7.87217
G1 X148.85 Y97.072 E7.94064
G1 X149.095 Y97.756 E7.95431
G1 X150.154 Y101.248 E8.02295
G1 X150.329 Y101.95 E8.03656
G1 X151.044 Y105.539 E8.1054
G1 X151.151 Y106.255 E8.11901
G1 X151.5 Y109.777 E8.18559
G1 X151.536 Y110.477 E8.19877
G1 X151.551 Y114.165 E8.26815
G1 X151.515 Y114.921 E8.28238
G1 X151.151 Y118.614 E8.35219
G1 X151.045 Y119.328 E8.36577
G1 X150.338 Y122.891 E8.4341
G1 X150.162 Y123.596 E8.44776
G1 X149.099 Y127.105 E8.51673
G1 X148.921 Y127.623 E8.52704
G1 X148.26 Y129.337 E8.56159
G1 X148.045 Y129.839 E8.57186
G1 X146.489 Y133.127 E8.64029
G1 X146.147 Y133.766 E8.65392
G1 X144.27 Y136.898 E8.72261
G1 X143.979 Y137.346 E8.73266
G1 X143.312 Y138.296 E8.75449
G1 X142.838 Y138.902 E8.76896
G1 X142.304 Y139.455 E8.78342
G1 X141.715 Y139.95 E8.7979
G1 X141.078 Y140.381 E8.81236
G1 X140.136 Y140.86 E8.83224
G1 X137.585 Y141.938 E8.88434
G1 X136.862 Y142.201 E8.89881
G1 X136.116 Y142.386 E8.91327
G1 X135.354 Y142.493 E8.92774
G1 X134.586 Y142.521 E8.9422
G1 X133.818 Y142.469 E8.95668
G1 X133.06 Y142.337 E8.97115
G1 X132.32 Y142.127 E8.98562
G1 X131.606 Y141.842 E9.00008
G1 X130.925 Y141.484 E9.01455
G1 X130.285 Y141.057 E9.02902
G1 X129.693 Y140.566 E9.04349
G1 X129.155 Y140.017 E9.05795
G1 X128.677 Y139.414 E9.07242
G1 X128.264 Y138.765 E9.08689
G1 X127.921 Y138.077 E9.10136
G1 X127.651 Y137.357 E9.11582
G1 X127.457 Y136.613 E9.13028
G1 X127.341 Y135.852 E9.14476
G1 X127.305 Y135.122 E9.15851
G1 X127.305 Y105.678 E9.71237
G1 X127.008 Y105.632 E9.71802
G1 X126.837 Y105.665 E9.7213
G1 X125.799 Y105.738 E9.74087
G1 X88.201 Y105.738 E10.44811
G1 X87.433 Y105.698 E10.46258
G1 X87.009 Y105.632 E10.47065
G1 X86.838 Y105.665 E10.47393
G1 X86.695 Y105.675 E10.47662
G1 X86.695 Y135.122 E11.03054
G1 X86.655 Y135.89 E11.045
G1 X86.536 Y136.65 E11.05947
G1 X86.338 Y137.393 E11.07394
G1 X86.064 Y138.112 E11.08841
G1 X85.717 Y138.798 E11.10287
G1 X85.301 Y139.445 E11.11734
G1 X84.82 Y140.045 E11.13181
G1 X84.279 Y140.592 E11.14628
G1 X83.684 Y141.08 E11.16075
G1 X83.042 Y141.503 E11.17521
G1 X82.359 Y141.858 E11.18969
G1 X81.644 Y142.139 E11.20415
G1 X80.902 Y142.345 E11.21863
G1 X80.144 Y142.473 E11.23309
G1 X79.376 Y142.522 E11.24757
G1 X78.608 Y142.49 E11.26203
G1 X77.847 Y142.379 E11.27649
G1 X77.101 Y142.189 E11.29097
G1 X76.415 Y141.939 E11.30471
G1 X73.863 Y140.861 E11.35682
G1 X73.171 Y140.525 E11.37129
G1 X72.518 Y140.119 E11.38575
G1 X71.91 Y139.648 E11.40022
G1 X71.355 Y139.116 E11.41468
G1 X70.857 Y138.529 E11.42916
G1 X70.567 Y138.121 E11.43858
G1 X68.922 Y135.629 E11.49475
G1 X68.57 Y135.037 E11.5077
G1 X66.851 Y131.817 E11.57636
G1 X66.542 Y131.163 E11.58997
G1 X65.146 Y127.791 E11.65862
G1 X64.9 Y127.104 E11.67234
G1 X63.838 Y123.595 E11.74131
G1 X63.663 Y122.893 E11.75492
G1 X62.955 Y119.33 E11.82325
G1 X62.849 Y118.614 E11.83686
G1 X62.485 Y114.922 E11.90665
G1 X62.449 Y114.166 E11.92089
G1 X62.464 Y110.478 E11.99026
G1 X62.5 Y109.778 E12.00344
G1 X62.849 Y106.256 E12.07002
G1 X62.955 Y105.543 E12.08358
G1 X63.667 Y101.963 E12.15224
G1 X63.843 Y101.258 E12.16591
G1 X64.902 Y97.766 E12.23455
G1 X65.078 Y97.255 E12.24472
G1 X65.738 Y95.541 E12.27926
G1 X65.956 Y95.034 E12.28965
G1 X67.512 Y91.747 E12.35805
G1 X67.853 Y91.109 E12.37166
G1 X69.73 Y87.977 E12.44035
G1 X70.127 Y87.381 E12.45382
G1 X72.202 Y84.575 E12.51946
G1 X72.542 Y84.149 E12.52972
G1 X74.037 Y82.411 E12.57284
G1 X74.437 Y81.982 E12.58387
G1 X76.758 Y79.681 E12.64535
G0 F3600 X77.04 Y79.965
G1 F1800 X77.598 Y79.467 E12.65942
G1 X78.284 Y78.984 E12.6752
G1 X81.042 Y77.277 E12.73621
G1 X81.443 Y77.046 E12.74492
G1 X82.897 Y76.274 E12.77589
G1 X83.924 Y75.831 E12.79692
G1 X87.034 Y74.772 E12.85872
G1 X87.472 Y74.638 E12.86734
G1 X90.804 Y73.742 E12.93224
G1 X91.122 Y73.665 E12.9384
G1 X92.836 Y73.289 E12.97141
G1 X93.15 Y73.227 E12.97743
G1 X96.687 Y72.619 E13.04493
G1 X97.088 Y72.562 E13.05255
G1 X100.703 Y72.154 E13.12099
G1 X101.097 Y72.121 E13.12842
G1 X104.779 Y71.915 E13.19779
G1 X105.17 Y71.904 E13.20515
G1 X108.83 Y71.904 E13.274
G1 X109.221 Y71.915 E13.28135
G1 X112.903 Y72.121 E13.35072
G1 X113.295 Y72.154 E13.35812
G1 X116.91 Y72.561 E13.42655
G1 X117.317 Y72.619 E13.43429
G1 X120.854 Y73.229 E13.5018
G1 X121.157 Y73.288 E13.50761
G1 X122.87 Y73.662 E13.54059
G1 X123.196 Y73.741 E13.5469
G1 X126.53 Y74.638 E13.61184
G1 X126.967 Y74.772 E13.62044
G1 X130.074 Y75.83 E13.68218
G1 X130.769 Y76.108 E13.69626
G1 X131.239 Y76.349 E13.7062
G1 X134.124 Y77.965 E13.7684
G1 X134.52 Y78.204 E13.7771
G1 X135.845 Y79.066 E13.80683
G1 X136.45 Y79.507 E13.82092
G1 X136.955 Y79.962 E13.8337
G1 X139.279 Y82.265 E13.89525
G1 X139.748 Y82.778 E13.90832
G1 X142.263 Y85.822 E13.9826
G1 X142.685 Y86.389 E13.99589
G1 X144.714 Y89.422 E14.06453
G1 X145.07 Y90.016 E14.07756
G1 X146.794 Y93.243 E14.14638
G1 X147.087 Y93.862 E14.15926
G1 X148.48 Y97.225 E14.22774
G1 X148.712 Y97.873 E14.24068
G1 X149.771 Y101.365 E14.30932
G1 X149.937 Y102.028 E14.32218
G1 X150.652 Y105.617 E14.39102
G1 X150.753 Y106.295 E14.40391
G1 X151.102 Y109.817 E14.47049
G1 X151.136 Y110.479 E14.48296
G1 X151.151 Y114.167 E14.55233
G1 X151.117 Y114.882 E14.56579
G1 X150.753 Y118.575 E14.6356
G1 X150.653 Y119.25 E14.64843
G1 X149.946 Y122.813 E14.71676
G1 X149.779 Y123.48 E14.7297
G1 X148.716 Y126.989 E14.79867
G1 X148.548 Y127.479 E14.80841
G1 X147.887 Y129.193 E14.84297
G1 X147.683 Y129.668 E14.85269
G1 X146.127 Y132.956 E14.92111
G1 X145.804 Y133.56 E14.934
G1 X143.927 Y136.692 E15.00268
G1 X143.652 Y137.116 E15.01219
G1 X142.985 Y138.066 E15.03402
G1 X142.523 Y138.655 E15.04811
G1 X142.001 Y139.19 E15.06217
G1 X141.425 Y139.667 E15.07623
G1 X140.801 Y140.08 E15.09031
G1 X139.981 Y140.492 E15.10757
G1 X137.43 Y141.57 E15.15967
G1 X136.726 Y141.824 E15.17374
G1 X135.999 Y142.001 E15.18782
G1 X135.258 Y142.1 E15.20188
G1 X134.51 Y142.119 E15.21596
G1 X133.764 Y142.059 E15.23003
G1 X133.03 Y141.919 E15.24409
G1 X132.314 Y141.701 E15.25817
G1 X131.625 Y141.408 E15.27225
G1 X130.972 Y141.044 E15.28632
G1 X130.362 Y140.612 E15.30038
G1 X129.801 Y140.117 E15.31445
G1 X129.296 Y139.565 E15.32852
G1 X128.852 Y138.962 E15.34261
G1 X128.476 Y138.316 E15.35667
G1 X128.171 Y137.633 E15.37074
G1 X127.94 Y136.921 E15.38482
G1 X127.787 Y136.189 E15.39889
G1 X127.705 Y135.122 E15.41902
G1 X127.705 Y105.311 E15.97978
G1 X127.453 Y105.298 E15.98452
G1 X127.003 Y105.225 E15.9931
G1 X126.455 Y105.307 E16.00352
G1 X125.799 Y105.338 E16.01588
G1 X88.201 Y105.338 E16.72312
G1 X87.454 Y105.298 E16.73719
G1 X87.004 Y105.225 E16.74576
G1 X86.456 Y105.307 E16.75619
G1 X86.295 Y105.315 E16.75922
G1 X86.295 Y135.122 E17.3199
G1 X86.255 Y135.869 E17.33398
G1 X86.136 Y136.607 E17.34804
G1 X85.938 Y137.329 E17.36212
G1 X85.665 Y138.025 E17.37618
G1 X85.318 Y138.688 E17.39026
G1 X84.903 Y139.311 E17.40434
G1 X84.424 Y139.885 E17.4184
G1 X83.887 Y140.406 E17.43248
G1 X83.297 Y140.865 E17.44654
G1 X82.661 Y141.26 E17.46062
G1 X81.987 Y141.584 E17.47469
G1 X81.282 Y141.834 E17.48876
G1 X80.554 Y142.008 E17.50284
G1 X79.812 Y142.103 E17.51691
G1 X79.064 Y142.118 E17.53098
G1 X78.319 Y142.054 E17.54505
G1 X77.585 Y141.91 E17.55912
G1 X76.571 Y141.57 E17.57924
G1 X74.019 Y140.492 E17.63135
G1 X73.347 Y140.165 E17.64541
G1 X72.713 Y139.767 E17.65949
G1 X72.125 Y139.305 E17.67355
G1 X71.59 Y138.782 E17.68763
G1 X70.901 Y137.9 E17.70868
G1 X69.256 Y135.408 E17.76485
G1 X68.923 Y134.849 E17.77709
G1 X67.204 Y131.629 E17.84575
G1 X66.911 Y131.01 E17.85863
G1 X65.515 Y127.638 E17.92728
G1 X65.283 Y126.988 E17.94026
G1 X64.221 Y123.479 E18.00923
G1 X64.055 Y122.815 E18.0221
G1 X63.347 Y119.252 E18.09043
G1 X63.247 Y118.575 E18.10331
G1 X62.883 Y114.883 E18.17309
G1 X62.849 Y114.168 E18.18656
G1 X62.864 Y110.48 E18.25593
G1 X62.898 Y109.818 E18.2684
G1 X63.247 Y106.296 E18.33497
G1 X63.347 Y105.621 E18.34781
G1 X64.059 Y102.041 E18.41647
G1 X64.226 Y101.375 E18.42939
G1 X65.285 Y97.883 E18.49803
G1 X65.452 Y97.399 E18.50766
G1 X66.112 Y95.685 E18.54221
G1 X66.317 Y95.205 E18.55202
G1 X67.873 Y91.918 E18.62043
G1 X68.196 Y91.315 E18.6333
G1 X70.073 Y88.183 E18.70198
G1 X70.449 Y87.619 E18.71474
G1 X72.524 Y84.813 E18.78038
G1 X72.845 Y84.41 E18.79007
G1 X74.34 Y82.672 E18.8332
G1 X74.719 Y82.266 E18.84364
G1 X77.04 Y79.965 E18.90512
G0 F3600 X77.321 Y80.249
G1 F1800 X77.865 Y79.767 E18.91879
G1 X78.495 Y79.324 E18.93328
G1 X81.253 Y77.617 E18.99429
G1 X81.631 Y77.4 E19.00249
G1 X83.085 Y76.628 E19.03346
G1 X84.053 Y76.209 E19.0533
G1 X87.163 Y75.15 E19.1151
G1 X87.576 Y75.024 E19.12322
G1 X90.908 Y74.128 E19.18813
G1 X91.208 Y74.055 E19.19393
G1 X92.922 Y73.679 E19.22694
G1 X93.218 Y73.621 E19.23262
G1 X96.755 Y73.013 E19.30012
G1 X97.133 Y72.96 E19.3073
G1 X100.748 Y72.552 E19.37574
G1 X101.119 Y72.52 E19.38274
G1 X104.801 Y72.314 E19.45211
G1 X105.17 Y72.304 E19.45905
G1 X108.83 Y72.304 E19.5279
G1 X109.199 Y72.314 E19.53484
G1 X112.881 Y72.52 E19.60421
G1 X113.25 Y72.551 E19.61118
G1 X116.865 Y72.958 E19.67961
G1 X117.249 Y73.013 E19.6869
G1 X120.786 Y73.623 E19.75442
G1 X121.072 Y73.679 E19.7599
G1 X122.785 Y74.053 E19.79288
G1 X123.092 Y74.128 E19.79883
G1 X126.426 Y75.025 E19.86377
G1 X126.838 Y75.15 E19.87187
G1 X129.945 Y76.208 E19.93361
G1 X130.619 Y76.48 E19.94728
G1 X131.043 Y76.698 E19.95625
G1 X133.928 Y78.314 E20.01845
G1 X134.302 Y78.54 E20.02667
G1 X135.627 Y79.402 E20.05641
G1 X136.213 Y79.831 E20.07007
G1 X136.674 Y80.246 E20.08174
G1 X138.998 Y82.549 E20.14328
G1 X139.44 Y83.033 E20.15561
G1 X141.955 Y86.077 E20.22988
G1 X142.353 Y86.611 E20.24241
G1 X144.382 Y89.644 E20.31105
G1 X144.717 Y90.204 E20.32333
G1 X146.441 Y93.431 E20.39215
G1 X146.718 Y94.015 E20.40431
G1 X148.111 Y97.378 E20.47278
G1 X148.329 Y97.989 E20.48498
G1 X149.388 Y101.481 E20.55362
G1 X149.545 Y102.106 E20.56575
