;FLAVOR:RepRap
;TIME:5270
;Filament used: 0.452885m
;Layer height: 0.06
;Generated with Cura_SteamEngine 2.4.0
M190 S60
M104 S205
M109 S205
G28 ;Home
G1 Z15.0 F6000 ;Move the platform down 15mm
;Prime the extruder
G92 E0
G1 F200 E3
G92 E0
;LAYER_COUNT:122
;LAYER:0
M107
G1 F1500 E-6.5
G0 F3600 X86.504 Y83.306 Z0.3
;TYPE:SKIRT
G1 F1500 E0
G1 F1800 X87.103 Y82.791 E0.01486
G1 X87.751 Y82.34 E0.02971
G1 X88.442 Y81.956 E0.04458
G1 X89.167 Y81.644 E0.05943
G1 X89.92 Y81.407 E0.07428
G1 X90.694 Y81.248 E0.08914
G1 X91.479 Y81.167 E0.10398
G1 X91.881 Y81.157 E0.11155
G1 X95.063 Y81.157 E0.1714
G1 X95.066 Y81.138 E0.17177
G1 X95.264 Y80.373 E0.18663
G1 X95.538 Y79.633 E0.20147
G1 X95.886 Y78.924 E0.21633
G1 X96.304 Y78.253 E0.2312
G1 X96.787 Y77.629 E0.24604
G1 X97.33 Y77.056 E0.26089
G1 X97.929 Y76.541 E0.27575
G1 X98.577 Y76.09 E0.2906
G1 X99.268 Y75.706 E0.30547
G1 X99.993 Y75.394 E0.32032
G1 X100.746 Y75.157 E0.33517
G1 X101.52 Y74.998 E0.35003
G1 X102.305 Y74.917 E0.36488
G1 X102.707 Y74.907 E0.37244
G1 X105.887 Y74.907 E0.43226
G1 X105.89 Y74.888 E0.43262
G1 X106.088 Y74.123 E0.44749
G1 X106.362 Y73.383 E0.46233
G1 X106.71 Y72.674 E0.47719
G1 X107.128 Y72.003 E0.49206
G1 X107.611 Y71.379 E0.5069
G1 X108.154 Y70.806 E0.52175
G1 X108.753 Y70.291 E0.53661
G1 X109.401 Y69.84 E0.55146
G1 X110.092 Y69.456 E0.56633
G1 X110.817 Y69.144 E0.58118
G1 X111.57 Y68.907 E0.59603
G1 X112.344 Y68.748 E0.61089
G1 X113.129 Y68.667 E0.62573
G1 X113.531 Y68.657 E0.6333
G1 X122.119 Y68.657 E0.79484
G1 X122.908 Y68.697 E0.8097
G1 X123.688 Y68.816 E0.82455
G1 X124.453 Y69.014 E0.83941
G1 X125.193 Y69.288 E0.85425
G1 X125.902 Y69.636 E0.86911
G1 X126.573 Y70.054 E0.88398
G1 X127.197 Y70.537 E0.89882
G1 X127.77 Y71.08 E0.91367
G1 X128.285 Y71.679 E0.92853
G1 X128.736 Y72.327 E0.94338
G1 X129.12 Y73.018 E0.95825
G1 X129.432 Y73.743 E0.9731
G1 X129.669 Y74.496 E0.98795
G1 X129.828 Y75.27 E1.00281
G1 X129.909 Y76.055 E1.01766
G1 X129.919 Y76.457 E1.02522
G1 X129.919 Y85.044 E1.18675
G1 X129.879 Y85.833 E1.20161
G1 X129.76 Y86.613 E1.21645
G1 X129.562 Y87.378 E1.23132
G1 X129.288 Y88.118 E1.24616
G1 X128.94 Y88.827 E1.26102
G1 X128.522 Y89.498 E1.27589
G1 X128.039 Y90.122 E1.29073
G1 X127.496 Y90.695 E1.30558
G1 X127.427 Y90.755 E1.3073
G1 X127.77 Y91.08 E1.31619
G1 X128.285 Y91.679 E1.33105
G1 X128.736 Y92.327 E1.3459
G1 X129.12 Y93.018 E1.36077
G1 X129.432 Y93.743 E1.37562
G1 X129.669 Y94.496 E1.39046
G1 X129.828 Y95.27 E1.40533
G1 X129.909 Y96.055 E1.42017
G1 X129.919 Y96.457 E1.42774
G1 X129.919 Y105.044 E1.58926
G1 X129.879 Y105.833 E1.60412
G1 X129.76 Y106.613 E1.61897
G1 X129.562 Y107.378 E1.63383
G1 X129.288 Y108.118 E1.64867
G1 X128.94 Y108.827 E1.66353
G1 X128.522 Y109.498 E1.6784
G1 X128.039 Y110.122 E1.69324
G1 X127.496 Y110.695 E1.70809
G1 X127.427 Y110.754 E1.7098
G1 X127.77 Y111.079 E1.71869
G1 X128.285 Y111.678 E1.73355
G1 X128.736 Y112.326 E1.7484
G1 X129.12 Y113.017 E1.76327
G1 X129.432 Y113.742 E1.77812
G1 X129.669 Y114.495 E1.79297
G1 X129.828 Y115.269 E1.80783
G1 X129.909 Y116.054 E1.82267
G1 X129.919 Y116.456 E1.83024
G1 X129.919 Y125.043 E1.99176
G1 X129.879 Y125.832 E2.00663
G1 X129.76 Y126.612 E2.02147
G1 X129.562 Y127.377 E2.03633
G1 X129.288 Y128.117 E2.05117
G1 X128.94 Y128.826 E2.06603
G1 X128.522 Y129.497 E2.0809
G1 X128.039 Y130.121 E2.09575
G1 X127.496 Y130.694 E2.11059
G1 X126.897 Y131.209 E2.12545
G1 X126.249 Y131.66 E2.1403
G1 X125.558 Y132.044 E2.15518
G1 X124.833 Y132.356 E2.17002
G1 X124.08 Y132.593 E2.18487
G1 X123.306 Y132.752 E2.19973
G1 X122.521 Y132.833 E2.21458
G1 X122.119 Y132.843 E2.22214
G1 X118.937 Y132.843 E2.282
G1 X118.934 Y132.862 E2.28236
G1 X118.736 Y133.627 E2.29722
G1 X118.462 Y134.367 E2.31207
G1 X118.114 Y135.076 E2.32692
G1 X117.696 Y135.747 E2.3418
G1 X117.213 Y136.371 E2.35664
G1 X116.67 Y136.944 E2.37149
G1 X116.071 Y137.459 E2.38635
G1 X115.423 Y137.91 E2.4012
G1 X114.732 Y138.294 E2.41607
G1 X114.007 Y138.606 E2.43092
G1 X113.254 Y138.843 E2.44577
G1 X112.48 Y139.002 E2.46063
G1 X111.695 Y139.083 E2.47547
G1 X111.293 Y139.093 E2.48304
G1 X108.113 Y139.093 E2.54285
G1 X108.11 Y139.112 E2.54322
G1 X107.912 Y139.877 E2.55808
G1 X107.638 Y140.617 E2.57292
G1 X107.29 Y141.326 E2.58778
G1 X106.872 Y141.997 E2.60265
G1 X106.389 Y142.621 E2.61749
G1 X105.846 Y143.194 E2.63234
G1 X105.247 Y143.709 E2.6472
G1 X104.599 Y144.16 E2.66205
G1 X103.908 Y144.544 E2.67692
G1 X103.183 Y144.856 E2.69177
G1 X102.43 Y145.093 E2.70662
G1 X101.656 Y145.252 E2.72148
G1 X100.871 Y145.333 E2.73633
G1 X100.469 Y145.343 E2.74389
G1 X91.881 Y145.343 E2.90544
G1 X91.092 Y145.303 E2.9203
G1 X90.312 Y145.184 E2.93514
G1 X89.547 Y144.986 E2.95001
G1 X88.807 Y144.712 E2.96485
G1 X88.098 Y144.364 E2.97971
G1 X87.427 Y143.946 E2.99458
G1 X86.803 Y143.463 E3.00942
G1 X86.23 Y142.92 E3.02427
G1 X85.715 Y142.321 E3.03913
G1 X85.264 Y141.673 E3.05398
G1 X84.88 Y140.982 E3.06885
G1 X84.568 Y140.257 E3.0837
G1 X84.331 Y139.504 E3.09855
G1 X84.172 Y138.73 E3.11341
G1 X84.091 Y137.945 E3.12825
G1 X84.081 Y137.543 E3.13582
G1 X84.081 Y128.956 E3.29734
G1 X84.121 Y128.167 E3.3122
G1 X84.24 Y127.387 E3.32705
G1 X84.438 Y126.622 E3.34191
G1 X84.712 Y125.882 E3.35675
G1 X85.06 Y125.173 E3.37161
G1 X85.478 Y124.502 E3.38648
G1 X85.961 Y123.878 E3.40132
G1 X86.504 Y123.305 E3.41617
G1 X86.573 Y123.245 E3.41789
G1 X86.23 Y122.92 E3.42678
G1 X85.715 Y122.321 E3.44164
G1 X85.264 Y121.673 E3.45649
G1 X84.88 Y120.982 E3.47136
G1 X84.568 Y120.257 E3.48621
G1 X84.331 Y119.504 E3.50106
G1 X84.172 Y118.73 E3.51592
G1 X84.091 Y117.945 E3.53077
G1 X84.081 Y117.543 E3.53833
G1 X84.081 Y108.956 E3.69986
G1 X84.121 Y108.167 E3.71472
G1 X84.24 Y107.387 E3.72956
G1 X84.438 Y106.622 E3.74442
G1 X84.712 Y105.882 E3.75927
G1 X85.06 Y105.173 E3.77412
G1 X85.478 Y104.502 E3.789
G1 X85.961 Y103.878 E3.80384
G1 X86.504 Y103.305 E3.81869
G1 X86.573 Y103.246 E3.8204
G1 X86.23 Y102.921 E3.82928
G1 X85.715 Y102.322 E3.84414
G1 X85.264 Y101.674 E3.85899
G1 X84.88 Y100.983 E3.87386
G1 X84.568 Y100.258 E3.88871
G1 X84.331 Y99.505 E3.90356
G1 X84.172 Y98.731 E3.91842
G1 X84.091 Y97.946 E3.93327
G1 X84.081 Y97.544 E3.94083
G1 X84.081 Y88.957 E4.10236
G1 X84.121 Y88.168 E4.11722
G1 X84.24 Y87.388 E4.13206
G1 X84.438 Y86.623 E4.14693
G1 X84.712 Y85.883 E4.16177
G1 X85.06 Y85.174 E4.17663
G1 X85.478 Y84.503 E4.1915
G1 X85.961 Y83.879 E4.20634
G1 X86.504 Y83.306 E4.22119
G0 F3600 X86.897 Y83.487
G1 F1800 X87.492 Y82.999 E4.23566
G1 X88.134 Y82.576 E4.25013
G1 X88.817 Y82.221 E4.26461
G1 X89.532 Y81.94 E4.27906
G1 X90.274 Y81.734 E4.29354
G1 X91.032 Y81.606 E4.308
G1 X91.881 Y81.557 E4.324
G1 X95.407 Y81.557 E4.39033
G1 X95.466 Y81.179 E4.39752
G1 X95.664 Y80.436 E4.41199
G1 X95.938 Y79.717 E4.42646
G1 X96.285 Y79.031 E4.44092
G1 X96.701 Y78.384 E4.45539
G1 X97.182 Y77.784 E4.46985
G1 X97.723 Y77.237 E4.48433
G1 X98.318 Y76.749 E4.4988
G1 X98.96 Y76.326 E4.51326
G1 X99.643 Y75.971 E4.52774
G1 X100.358 Y75.69 E4.54219
G1 X101.1 Y75.484 E4.55668
G1 X101.858 Y75.356 E4.57114
G1 X102.707 Y75.307 E4.58714
G1 X106.231 Y75.307 E4.65342
G1 X106.29 Y74.929 E4.66062
G1 X106.488 Y74.186 E4.67509
G1 X106.762 Y73.467 E4.68956
G1 X107.109 Y72.781 E4.70402
G1 X107.525 Y72.134 E4.71849
G1 X108.006 Y71.534 E4.73295
G1 X108.547 Y70.987 E4.74743
G1 X109.142 Y70.499 E4.7619
G1 X109.784 Y70.076 E4.77636
G1 X110.467 Y69.721 E4.79084
G1 X111.182 Y69.44 E4.80529
G1 X111.924 Y69.234 E4.81978
G1 X112.682 Y69.106 E4.83424
G1 X113.531 Y69.057 E4.85024
G1 X122.119 Y69.057 E5.01178
G1 X122.887 Y69.097 E5.02625
G1 X123.647 Y69.216 E5.04072
G1 X124.39 Y69.414 E5.05518
G1 X125.109 Y69.688 E5.06965
G1 X125.795 Y70.035 E5.08412
G1 X126.442 Y70.451 E5.09858
G1 X127.042 Y70.932 E5.11305
G1 X127.589 Y71.473 E5.12752
G1 X128.077 Y72.068 E5.142
G1 X128.5 Y72.71 E5.15646
G1 X128.855 Y73.393 E5.17094
G1 X129.136 Y74.108 E5.18539
G1 X129.342 Y74.85 E5.19987
G1 X129.47 Y75.608 E5.21433
G1 X129.519 Y76.457 E5.23033
G1 X129.519 Y85.044 E5.39186
G1 X129.479 Y85.812 E5.40632
G1 X129.36 Y86.572 E5.42079
G1 X129.162 Y87.315 E5.43526
G1 X128.888 Y88.034 E5.44973
G1 X128.541 Y88.72 E5.46419
G1 X128.125 Y89.367 E5.47866
G1 X127.644 Y89.967 E5.49313
G1 X127.103 Y90.514 E5.5076
G1 X126.815 Y90.75 E5.5146
G1 X127.042 Y90.932 E5.52008
G1 X127.589 Y91.473 E5.53455
G1 X128.077 Y92.068 E5.54902
G1 X128.5 Y92.71 E5.56348
G1 X128.855 Y93.393 E5.57796
G1 X129.136 Y94.108 E5.59242
G1 X129.342 Y94.85 E5.6069
G1 X129.47 Y95.608 E5.62136
G1 X129.519 Y96.457 E5.63736
G1 X129.519 Y105.044 E5.79888
G1 X129.479 Y105.812 E5.81335
G1 X129.36 Y106.572 E5.82782
G1 X129.162 Y107.315 E5.84228
G1 X128.888 Y108.034 E5.85676
G1 X128.541 Y108.72 E5.87122
G1 X128.125 Y109.367 E5.88569
G1 X127.644 Y109.967 E5.90015
G1 X127.103 Y110.514 E5.91462
G1 X126.816 Y110.75 E5.92161
G1 X127.042 Y110.931 E5.92706
G1 X127.589 Y111.472 E5.94153
G1 X128.077 Y112.067 E5.95601
G1 X128.5 Y112.709 E5.97047
G1 X128.855 Y113.392 E5.98495
G1 X129.136 Y114.107 E5.9994
G1 X129.342 Y114.849 E6.01389
G1 X129.47 Y115.607 E6.02835
G1 X129.519 Y116.456 E6.04434
G1 X129.519 Y125.043 E6.20587
G1 X129.479 Y125.811 E6.22033
G1 X129.36 Y126.571 E6.23481
G1 X129.162 Y127.314 E6.24927
G1 X128.888 Y128.033 E6.26374
G1 X128.541 Y128.719 E6.2782
G1 X128.125 Y129.366 E6.29267
G1 X127.644 Y129.966 E6.30714
G1 X127.103 Y130.513 E6.32161
G1 X126.508 Y131.001 E6.33608
G1 X125.866 Y131.424 E6.35055
G1 X125.183 Y131.779 E6.36503
G1 X124.468 Y132.06 E6.37948
G1 X123.726 Y132.266 E6.39396
G1 X122.968 Y132.394 E6.40842
G1 X122.119 Y132.443 E6.42442
G1 X118.593 Y132.443 E6.49075
G1 X118.534 Y132.821 E6.49794
G1 X118.336 Y133.564 E6.51241
G1 X118.062 Y134.283 E6.52688
G1 X117.715 Y134.969 E6.54134
G1 X117.299 Y135.616 E6.55581
G1 X116.818 Y136.216 E6.57028
G1 X116.277 Y136.763 E6.58475
G1 X115.682 Y137.251 E6.59922
G1 X115.04 Y137.674 E6.61368
G1 X114.357 Y138.029 E6.62816
G1 X113.642 Y138.31 E6.64261
G1 X112.9 Y138.516 E6.6571
G1 X112.142 Y138.644 E6.67156
G1 X111.293 Y138.693 E6.68756
G1 X107.769 Y138.693 E6.75385
G1 X107.71 Y139.071 E6.76104
G1 X107.512 Y139.814 E6.77551
G1 X107.238 Y140.533 E6.78998
G1 X106.891 Y141.219 E6.80444
G1 X106.475 Y141.866 E6.81891
G1 X105.994 Y142.466 E6.83337
G1 X105.453 Y143.013 E6.84785
G1 X104.858 Y143.501 E6.86232
G1 X104.216 Y143.924 E6.87678
G1 X103.533 Y144.279 E6.89126
G1 X102.818 Y144.56 E6.90571
G1 X102.076 Y144.766 E6.9202
G1 X101.318 Y144.894 E6.93466
G1 X100.469 Y144.943 E6.95066
G1 X91.881 Y144.943 E7.1122
G1 X91.113 Y144.903 E7.12667
G1 X90.353 Y144.784 E7.14114
G1 X89.61 Y144.586 E7.1556
G1 X88.891 Y144.312 E7.17008
G1 X88.205 Y143.965 E7.18454
G1 X87.558 Y143.549 E7.19901
G1 X86.958 Y143.068 E7.21347
G1 X86.411 Y142.527 E7.22794
G1 X85.923 Y141.932 E7.24242
G1 X85.5 Y141.29 E7.25688
G1 X85.145 Y140.607 E7.27136
G1 X84.864 Y139.892 E7.28581
G1 X84.658 Y139.15 E7.3003
G1 X84.53 Y138.392 E7.31476
G1 X84.481 Y137.543 E7.33075
G1 X84.481 Y128.956 E7.49228
G1 X84.521 Y128.188 E7.50674
G1 X84.64 Y127.428 E7.52121
G1 X84.838 Y126.685 E7.53568
G1 X85.112 Y125.966 E7.55015
G1 X85.459 Y125.28 E7.56461
G1 X85.875 Y124.633 E7.57908
G1 X86.356 Y124.033 E7.59355
G1 X86.897 Y123.486 E7.60802
G1 X87.185 Y123.25 E7.61502
G1 X86.958 Y123.068 E7.6205
G1 X86.411 Y122.527 E7.63497
G1 X85.923 Y121.932 E7.64944
G1 X85.5 Y121.29 E7.66391
G1 X85.145 Y120.607 E7.67838
G1 X84.864 Y119.892 E7.69284
G1 X84.658 Y119.15 E7.70732
G1 X84.53 Y118.392 E7.72178
G1 X84.481 Y117.543 E7.73778
G1 X84.481 Y108.956 E7.8993
G1 X84.521 Y108.188 E7.91377
G1 X84.64 Y107.428 E7.92824
G1 X84.838 Y106.685 E7.9427
G1 X85.112 Y105.966 E7.95718
G1 X85.459 Y105.28 E7.97164
G1 X85.875 Y104.633 E7.98611
G1 X86.356 Y104.033 E8.00057
G1 X86.897 Y103.486 E8.01505
G1 X87.184 Y103.25 E8.02203
G1 X86.958 Y103.069 E8.02748
G1 X86.411 Y102.528 E8.04195
G1 X85.923 Y101.933 E8.05643
G1 X85.5 Y101.291 E8.07089
G1 X85.145 Y100.608 E8.08537
G1 X84.864 Y99.893 E8.09982
G1 X84.658 Y99.151 E8.11431
G1 X84.53 Y98.393 E8.12877
G1 X84.481 Y97.544 E8.14476
G1 X84.481 Y88.957 E8.30629
G1 X84.521 Y88.189 E8.32076
G1 X84.64 Y87.429 E8.33523
G1 X84.838 Y86.686 E8.34969
G1 X85.112 Y85.967 E8.36416
G1 X85.459 Y85.281 E8.37862
G1 X85.875 Y84.634 E8.39309
G1 X86.356 Y84.034 E8.40756
G1 X86.897 Y83.487 E8.42203
G0 F3600 X87.289 Y83.673
G1 F1800 X87.879 Y83.214 E8.43609
G1 X88.515 Y82.819 E8.45017
G1 X89.189 Y82.495 E8.46424
G1 X89.894 Y82.245 E8.47831
G1 X90.622 Y82.071 E8.49239
G1 X91.364 Y81.976 E8.50646
G1 X91.881 Y81.957 E8.5162
G1 X95.747 Y81.957 E8.58892
G1 X95.866 Y81.222 E8.60292
G1 X96.064 Y80.5 E8.61701
G1 X96.337 Y79.804 E8.63107
G1 X96.684 Y79.141 E8.64514
G1 X97.099 Y78.518 E8.65923
G1 X97.578 Y77.944 E8.67329
G1 X98.115 Y77.423 E8.68736
G1 X98.705 Y76.964 E8.70142
G1 X99.341 Y76.569 E8.71551
G1 X100.015 Y76.245 E8.72957
G1 X100.72 Y75.995 E8.74364
G1 X101.448 Y75.821 E8.75772
G1 X102.19 Y75.726 E8.7718
G1 X102.707 Y75.707 E8.78153
G1 X106.571 Y75.707 E8.85421
G1 X106.69 Y74.972 E8.86822
G1 X106.888 Y74.25 E8.8823
G1 X107.161 Y73.554 E8.89636
G1 X107.508 Y72.891 E8.91044
G1 X107.923 Y72.268 E8.92452
G1 X108.402 Y71.694 E8.93858
G1 X108.939 Y71.173 E8.95266
G1 X109.529 Y70.714 E8.96672
G1 X110.165 Y70.319 E8.9808
G1 X110.839 Y69.995 E8.99487
G1 X111.544 Y69.745 E9.00894
G1 X112.272 Y69.571 E9.02302
G1 X113.014 Y69.476 E9.03709
G1 X113.531 Y69.457 E9.04682
G1 X122.119 Y69.457 E9.20837
G1 X122.866 Y69.497 E9.22244
G1 X123.604 Y69.616 E9.2365
G1 X124.326 Y69.814 E9.25058
G1 X125.022 Y70.087 E9.26465
G1 X125.685 Y70.434 E9.27872
G1 X126.308 Y70.849 E9.2928
G1 X126.882 Y71.328 E9.30687
G1 X127.403 Y71.865 E9.32094
G1 X127.862 Y72.455 E9.335
G1 X128.257 Y73.091 E9.34909
G1 X128.581 Y73.765 E9.36315
G1 X128.831 Y74.47 E9.37722
G1 X129.005 Y75.198 E9.3913
G1 X129.1 Y75.94 E9.40537
G1 X129.119 Y76.457 E9.41511
G1 X129.119 Y85.044 E9.57663
G1 X129.079 Y85.791 E9.5907
G1 X128.96 Y86.529 E9.60476
G1 X128.762 Y87.251 E9.61885
G1 X128.489 Y87.947 E9.63291
G1 X128.142 Y88.61 E9.64699
G1 X127.727 Y89.233 E9.66107
G1 X127.248 Y89.807 E9.67513
G1 X126.711 Y90.328 E9.68921
G1 X126.164 Y90.753 E9.70224
G1 X126.308 Y90.849 E9.70549
G1 X126.882 Y91.328 E9.71955
G1 X127.403 Y91.865 E9.73363
G1 X127.862 Y92.455 E9.74769
G1 X128.257 Y93.091 E9.76177
G1 X128.581 Y93.765 E9.77584
G1 X128.831 Y94.47 E9.78991
G1 X129.005 Y95.198 E9.80399
G1 X129.1 Y95.94 E9.81806
G1 X129.119 Y96.457 E9.82779
G1 X129.119 Y105.044 E9.98932
G1 X129.079 Y105.791 E10.00339
G1 X128.96 Y106.529 E10.01745
G1 X128.762 Y107.251 E10.03153
G1 X128.489 Y107.947 E10.0456
G1 X128.142 Y108.61 E10.05967
G1 X127.727 Y109.233 E10.07376
G1 X127.248 Y109.807 E10.08782
G1 X126.711 Y110.328 E10.10189
G1 X126.165 Y110.753 E10.11491
G1 X126.308 Y110.848 E10.11814
G1 X126.882 Y111.327 E10.1322
G1 X127.403 Y111.864 E10.14627
G1 X127.862 Y112.454 E10.16033
G1 X128.257 Y113.09 E10.17442
G1 X128.581 Y113.764 E10.18849
G1 X128.831 Y114.469 E10.20256
G1 X129.005 Y115.197 E10.21664
G1 X129.1 Y115.939 E10.23071
G1 X129.119 Y116.456 E10.24044
G1 X129.119 Y125.043 E10.40196
G1 X129.079 Y125.79 E10.41604
G1 X128.96 Y126.528 E10.4301
G1 X128.762 Y127.25 E10.44418
G1 X128.489 Y127.946 E10.45824
G1 X128.142 Y128.609 E10.47232
G1 X127.727 Y129.232 E10.4864
G1 X127.248 Y129.806 E10.50046
G1 X126.711 Y130.327 E10.51454
G1 X126.121 Y130.786 E10.5286
G1 X125.485 Y131.181 E10.54268
G1 X124.811 Y131.505 E10.55675
G1 X124.106 Y131.755 E10.57082
G1 X123.378 Y131.929 E10.5849
G1 X122.636 Y132.024 E10.59897
G1 X122.119 Y132.043 E10.6087
G1 X118.253 Y132.043 E10.68142
G1 X118.134 Y132.778 E10.69543
G1 X117.936 Y133.5 E10.70951
G1 X117.663 Y134.196 E10.72358
G1 X117.316 Y134.859 E10.73765
G1 X116.901 Y135.482 E10.75173
G1 X116.422 Y136.056 E10.7658
G1 X115.885 Y136.577 E10.77987
G1 X115.295 Y137.036 E10.79393
G1 X114.659 Y137.431 E10.80801
G1 X113.985 Y137.755 E10.82208
G1 X113.28 Y138.005 E10.83615
G1 X112.552 Y138.179 E10.85023
G1 X111.81 Y138.274 E10.8643
G1 X111.293 Y138.293 E10.87404
G1 X107.429 Y138.293 E10.94672
G1 X107.31 Y139.028 E10.96073
G1 X107.112 Y139.75 E10.97481
G1 X106.839 Y140.446 E10.98887
G1 X106.492 Y141.109 E11.00295
G1 X106.077 Y141.732 E11.01703
